; generated by PrusaSlicer 2.4.0+win64 on 2022-01-07 at 17:20:43 UTC

; 

; external perimeters extrusion width = 0.45mm
; perimeters extrusion width = 0.45mm
; infill extrusion width = 0.45mm
; solid infill extrusion width = 0.45mm
; top infill extrusion width = 0.40mm
; first layer extrusion width = 0.42mm

M73 P0 R33
M73 Q0 S33
M201 X1000 Y1000 Z200 E5000 ; sets maximum accelerations, mm/sec^2
M203 X200 Y200 Z12 E120 ; sets maximum feedrates, mm/sec
M204 P1250 R1250 T1250 ; sets acceleration (P, T) and retract acceleration (R), mm/sec^2
M205 X8.00 Y8.00 Z0.40 E4.50 ; sets the jerk limits, mm/sec
M205 S0 T0 ; sets the minimum extruding and travel feed rate, mm/sec
M107
;TYPE:Custom
M862.3 P "MK3S" ; printer model check
M862.1 P0.4 ; nozzle diameter check
M115 U3.10.0 ; tell printer latest fw version
G90 ; use absolute coordinates
M83 ; extruder relative mode
M104 S240 ; set extruder temp
M140 S85 ; set bed temp
M190 S85 ; wait for bed temp
M109 S240 ; wait for extruder temp
G28 W ; home all without mesh bed level
G80 ; mesh bed leveling
G1 Z0.2 F720
G1 Y-3 F1000 ; go outside print area
G92 E0
G1 X60 E9 F1000 ; intro line
G1 X100 E12.5 F1000 ; intro line
G92 E0
M221 S95

; Don't change E values below. Excessive value can damage the printer.
M907 E430 ; set extruder motor current
G21 ; set units to millimeters
G90 ; use absolute coordinates
M83 ; use relative distances for extrusion
M900 K0.08 ; Filament gcode LA 1.5
M900 K45 ; Filament gcode LA 1.0
M107
;LAYER_CHANGE
;Z:0.2
;HEIGHT:0.2
;BEFORE_LAYER_CHANGE
G92 E0.0
;0.2


G1 E-1 F2100
G1 Z.2 F720
;AFTER_LAYER_CHANGE
;0.2
G1 Z.4
G1 X91.819 Y79.707 F10800
G1 Z.2 F720
G1 E1 F2100
M204 S800
;TYPE:Skirt/Brim
;WIDTH:0.42
G1 F1200
G1 X94.807 Y76.719 E.13247
G1 X96.488 Y76.023 E.05704
G1 X147.637 Y76.023 E1.60374
G1 X149.952 Y76.268 E.07301
G1 X150.767 Y76.469 E.02631
G1 X152.322 Y77.014 E.05165
G1 X153.318 Y77.493 E.03465
G1 X154.713 Y78.37 E.05165
G1 X155.378 Y78.881 E.02631
G1 X156.919 Y80.422 E.06834
G1 X157.43 Y81.088 E.02631
G1 X158.307 Y82.482 E.05165
G1 X158.786 Y83.478 E.03465
G1 X159.331 Y85.033 E.05165
G1 X159.532 Y85.848 E.02631
G1 X159.777 Y88.168 E.07316
G1 X159.773 Y121.965 E1.05968
G1 X159.576 Y123.89 E.06065
G1 X159.33 Y124.967 E.03465
G1 X158.786 Y126.522 E.05165
G1 X158.436 Y127.284 E.02631
G1 X157.43 Y128.912 E.06
G1 X156.741 Y129.777 E.03465
G1 X155.378 Y131.119 E.06
G1 X154.712 Y131.63 E.02631
G1 X153.084 Y132.636 E.06
G1 X152.322 Y132.986 E.02631
G1 X150.511 Y133.604 E.06
G1 X149.69 Y133.776 E.02631
G1 X148.051 Y133.957 E.05169
G1 X117.061 Y134.079 E.97168
G1 X114.992 Y133.828 E.06535
G1 X113.139 Y133.285 E.06052
G1 X111.749 Y132.67 E.04767
G1 X110.107 Y131.643 E.06072
G1 X109.316 Y130.997 E.03203
G1 X108.049 Y129.724 E.05632
G1 X107.476 Y128.989 E.02922
G1 X106.278 Y126.966 E.07371
G1 X91.326 Y93.174 E1.1586
G1 X91.123 Y92.212 E.03082
G1 X91.123 Y81.387 E.33941
G1 X91.796 Y79.762 E.05516
M204 S1000
;WIPE_START
G1 F8640
G1 X94.69 Y76.837 E-.95
;WIPE_END
G1 E-.05 F2100
G1 Z.4 F720
G1 X94.433 Y81.128 F10800
G1 Z.2 F720
G1 E1 F2100
M204 S800
G1 F1200
G1 X94.627 Y80.754 E.0132
G1 X95.502 Y79.814 E.04026
G1 X96.181 Y79.311 E.0265
G1 X98.153 Y78.687 E.06485
G1 X147.645 Y78.688 E1.55178
G1 X149.58 Y78.916 E.06111
M73 P1 R33
M73 Q1 S33
G1 X151.432 Y79.528 E.06115
G1 X153.653 Y80.915 E.08212
G1 X155.007 Y82.297 E.06065
G1 X156.071 Y83.949 E.06162
G1 X156.877 Y86.188 E.0746
G1 X157.105 Y88.033 E.05829
G1 X157.114 Y121.832 E1.05976
G1 X156.794 Y124.158 E.07361
G1 X156.166 Y125.856 E.05675
G1 X155.22 Y127.428 E.05754
G1 X153.701 Y129.043 E.0695
M73 P1 R32
G1 X151.866 Y130.263 E.06911
G1 X149.844 Y131.021 E.0677
G1 X147.636 Y131.313 E.06982
G1 X121.536 Y131.314 E.81834
G1 X117.214 Y131.421 E.13558
G1 X116.228 Y131.326 E.03106
G1 X115.482 Y131.209 E.02365
G1 X114.193 Y130.832 E.04213
G1 X112.986 Y130.31 E.04121
G1 X111.68 Y129.494 E.04827
G1 X110.093 Y128.009 E.06815
G1 X108.855 Y126.163 E.06971
G1 X108.038 Y123.949 E.07399
G1 X107.868 Y122.991 E.03051
G1 X107.772 Y121.622 E.04302
G1 X107.835 Y120.73 E.02804
G1 X108.045 Y119.41 E.04191
G1 X108.368 Y118.376 E.03397
G1 X108.719 Y117.505 E.02943
G1 X109.346 Y116.414 E.03945
G1 X109.836 Y115.695 E.02729
G1 X111.652 Y113.918 E.07967
G1 X113.447 Y112.85 E.0655
G1 X115.412 Y112.203 E.06485
G1 X117.129 Y111.995 E.05422
G1 X118.068 Y111.976 E.02945
G1 X121.086 Y112.083 E.09471
G1 X132.59 Y112.086 E.36067
G1 X137.887 Y106.789 E.23488
G1 X137.887 Y95.559 E.35211
G1 X137.847 Y95.21 E.01102
G1 X137.782 Y95.075 E.00469
G1 X137.65 Y94.969 E.00531
G1 X137.243 Y94.913 E.01287
G1 X98.291 Y94.913 E1.22132
G1 X97.16 Y94.707 E.03604
G1 X95.939 Y94.128 E.04237
G1 X94.963 Y93.266 E.04081
G1 X94.232 Y92.15 E.04184
G1 X93.843 Y90.919 E.04048
G1 X93.786 Y83.088 E.24556
G1 X94.102 Y81.768 E.04256
M73 Q1 S32
G1 X94.406 Y81.181 E.0207
M204 S1000
G1 X94.737 Y81.355 F10800
M204 S800
G1 F1200
G1 X94.948 Y80.953 E.01425
G1 X95.764 Y80.085 E.03733
G1 X96.379 Y79.633 E.02393
G1 X98.182 Y79.064 E.05928
G1 X147.634 Y79.065 E1.55052
G1 X149.516 Y79.288 E.05945
G1 X151.292 Y79.878 E.05866
G1 X153.4 Y81.195 E.07792
G1 X154.723 Y82.547 E.05934
G1 X155.742 Y84.135 E.05915
G1 X156.506 Y86.255 E.07066
G1 X156.728 Y88.045 E.05654
G1 X156.736 Y121.82 E1.059
G1 X156.433 Y124.047 E.07048
G1 X155.819 Y125.709 E.05553
G1 X154.908 Y127.216 E.05522
G1 X153.442 Y128.768 E.06693
G1 X151.676 Y129.936 E.0664
G1 X149.733 Y130.66 E.06502
G1 X147.624 Y130.936 E.06667
G1 X121.532 Y130.937 E.81811
G1 X117.238 Y131.044 E.13466
G1 X116.269 Y130.951 E.03052
G1 X115.553 Y130.838 E.02274
G1 X114.31 Y130.473 E.04062
G1 X113.174 Y129.983 E.0388
G1 X111.896 Y129.184 E.04724
G1 X110.367 Y127.75 E.06574
G1 X109.182 Y125.972 E.06698
G1 X108.398 Y123.835 E.07136
G1 X108.241 Y122.936 E.02863
M73 Q2 S32
G1 X108.149 Y121.635 E.04088
G1 X108.209 Y120.78 E.02687
M73 P2 R32
G1 X108.409 Y119.509 E.04036
G1 X108.726 Y118.495 E.0333
G1 X109.063 Y117.658 E.02829
G1 X109.669 Y116.609 E.03799
G1 X110.137 Y115.923 E.02605
G1 X111.865 Y114.23 E.07584
G1 X113.586 Y113.201 E.06287
G1 X115.476 Y112.575 E.06243
G1 X117.165 Y112.37 E.05332
G1 X118.07 Y112.353 E.02839
G1 X121.08 Y112.46 E.09443
G1 X132.746 Y112.463 E.36578
G1 X138.264 Y106.945 E.24467
G1 X138.264 Y95.538 E.35767
G1 X138.218 Y95.136 E.01268
G1 X138.164 Y94.98 E.00517
G1 X138.076 Y94.841 E.00517
G1 X137.959 Y94.724 E.00517
G1 X137.82 Y94.636 E.00517
G1 X137.664 Y94.582 E.00517
G1 X137.262 Y94.536 E.01268
G1 X98.307 Y94.536 E1.2214
G1 X97.297 Y94.355 E.03218
G1 X96.167 Y93.826 E.03914
G1 X95.263 Y93.036 E.03762
G1 X94.583 Y92.011 E.03856
G1 X94.211 Y90.833 E.03875
G1 X94.163 Y83.109 E.24218
G1 X94.463 Y81.88 E.03966
G1 X94.71 Y81.408 E.01669
M204 S1000
G1 X95.038 Y81.58 F10800
M204 S800
G1 F1200
G1 X95.241 Y81.192 E.01372
G1 X96.026 Y80.357 E.03595
G1 X96.576 Y79.956 E.02132
G1 X98.211 Y79.441 E.05375
G1 X147.623 Y79.442 E1.54928
G1 X149.416 Y79.652 E.05661
G1 X151.152 Y80.229 E.05735
G1 X153.147 Y81.475 E.07375
G1 X154.417 Y82.767 E.05681
G1 X155.413 Y84.321 E.05786
G1 X156.134 Y86.323 E.06672
G1 X156.351 Y88.057 E.05478
G1 X156.359 Y121.807 E1.05823
G1 X156.072 Y123.937 E.06737
G1 X155.487 Y125.529 E.05319
G1 X154.595 Y127.003 E.05402
G1 X153.216 Y128.466 E.06305
G1 X151.523 Y129.591 E.06372
G1 X149.662 Y130.289 E.06233
G1 X147.612 Y130.559 E.06483
G1 X121.527 Y130.56 E.81787
G1 X117.263 Y130.668 E.13373
G1 X116.311 Y130.576 E.02999
G1 X115.624 Y130.468 E.02181
G1 X114.428 Y130.115 E.03911
G1 X113.361 Y129.655 E.0364
G1 X112.112 Y128.875 E.0462
G1 X110.642 Y127.49 E.06331
G1 X109.508 Y125.783 E.06425
G1 X108.758 Y123.723 E.06874
G1 X108.614 Y122.882 E.02676
G1 X108.526 Y121.648 E.03878
G1 X108.583 Y120.83 E.02569
G1 X108.774 Y119.608 E.0388
G1 X109.083 Y118.615 E.03261
G1 X109.408 Y117.812 E.02714
G1 X109.992 Y116.805 E.03652
G1 X110.438 Y116.15 E.02483
G1 X112.078 Y114.542 E.07204
G1 X113.725 Y113.552 E.06024
G1 X115.541 Y112.947 E.06
G1 X117.2 Y112.746 E.05242
G1 X118.072 Y112.73 E.02732
G1 X121.073 Y112.837 E.09417
G1 X132.902 Y112.84 E.37089
G1 X138.641 Y107.101 E.25447
G1 X138.641 Y95.517 E.36323
G1 X138.588 Y95.052 E.01468
G1 X138.506 Y94.816 E.00784
G1 X138.373 Y94.604 E.00784
G1 X138.196 Y94.427 E.00784
G1 X137.984 Y94.294 E.00784
G1 X137.748 Y94.212 E.00784
G1 X137.283 Y94.159 E.01468
G1 X98.323 Y94.159 E1.22156
G1 X97.432 Y94.003 E.02838
G1 X96.394 Y93.524 E.03584
G1 X95.531 Y92.77 E.03594
G1 X94.914 Y91.828 E.03531
G1 X94.58 Y90.749 E.03542
G1 X94.541 Y83.131 E.23885
G1 X94.823 Y81.993 E.03677
G1 X95.011 Y81.633 E.01272
M204 S1000
G1 X95.341 Y81.808 F10800
M204 S800
G1 F1200
G1 X95.561 Y81.392 E.01476
G1 X96.287 Y80.63 E.03299
G1 X96.772 Y80.28 E.01875
G1 X98.239 Y79.818 E.04825
G1 X147.611 Y79.819 E1.54802
G1 X149.352 Y80.025 E.05496
M73 P3 R32
M73 Q3 S32
G1 X151.011 Y80.579 E.05484
G1 X152.893 Y81.755 E.06959
G1 X154.134 Y83.018 E.05549
G1 X155.084 Y84.506 E.05536
G1 X155.763 Y86.391 E.06281
G1 X155.974 Y88.069 E.05302
G1 X155.982 Y121.795 E1.05747
G1 X155.71 Y123.826 E.06426
G1 X155.139 Y125.382 E.05195
G1 X154.284 Y126.79 E.05167
G1 X152.957 Y128.191 E.06049
G1 X151.333 Y129.264 E.06103
G1 X149.551 Y129.928 E.05964
G1 X147.6 Y130.182 E.06168
G1 X121.522 Y130.183 E.81765
G1 X117.288 Y130.291 E.1328
G1 X116.353 Y130.201 E.02944
G1 X115.695 Y130.097 E.02089
G1 X114.546 Y129.756 E.03759
G1 X113.549 Y129.328 E.03402
G1 X112.328 Y128.565 E.04516
G1 X110.917 Y127.231 E.06086
G1 X109.836 Y125.594 E.06152
G1 X109.119 Y123.611 E.06611
G1 X108.988 Y122.828 E.02489
G1 X108.903 Y121.66 E.03672
G1 X108.957 Y120.88 E.02453
G1 X109.138 Y119.706 E.03722
G1 X109.441 Y118.735 E.03192
G1 X109.752 Y117.967 E.02599
G1 X110.314 Y117 E.03505
G1 X110.739 Y116.378 E.02361
G1 X112.292 Y114.853 E.06826
G1 X113.865 Y113.903 E.05761
G1 X115.605 Y113.319 E.05755
G1 X117.236 Y113.121 E.0515
G1 X118.073 Y113.107 E.02625
G1 X121.066 Y113.214 E.09391
G1 X133.058 Y113.217 E.376
G1 X139.018 Y107.258 E.26427
G1 X139.018 Y95.496 E.36879
G1 X138.958 Y94.967 E.01667
G1 X138.848 Y94.651 E.0105
G1 X138.669 Y94.367 E.0105
G1 X138.433 Y94.131 E.0105
G1 X138.149 Y93.952 E.0105
G1 X137.833 Y93.842 E.0105
G1 X137.304 Y93.782 E.01667
G1 X98.339 Y93.782 E1.22173
G1 X97.565 Y93.649 E.02464
G1 X96.619 Y93.22 E.03256
G1 X95.83 Y92.539 E.03269
G1 X95.266 Y91.69 E.03196
G1 X94.948 Y90.664 E.03367
G1 X94.918 Y83.154 E.23548
G1 X95.183 Y82.108 E.03382
G1 X95.313 Y81.861 E.00876
M204 S1000
G1 X95.642 Y82.038 F10800
M204 S800
G1 F1200
G1 X95.881 Y81.594 E.01579
G1 X96.545 Y80.905 E.03003
G1 X96.966 Y80.604 E.01621
G1 X98.268 Y80.195 E.0428
G1 X147.6 Y80.196 E1.54677
G1 X149.288 Y80.397 E.05329
G1 X150.869 Y80.93 E.05232
G1 X152.641 Y82.036 E.06548
G1 X153.827 Y83.238 E.05294
G1 X154.755 Y84.691 E.05407
G1 X155.391 Y86.459 E.05891
G1 X155.597 Y88.081 E.05126
G1 X155.605 Y121.783 E1.05671
G1 X155.349 Y123.717 E.06117
G1 X154.807 Y125.202 E.04957
G1 X153.972 Y126.577 E.05044
G1 X152.699 Y127.915 E.05791
G1 X151.144 Y128.937 E.05834
G1 X149.44 Y129.567 E.05697
G1 X147.588 Y129.805 E.05856
G1 X121.521 Y129.806 E.81731
G1 X120.576 Y129.818 E.02964
G1 X117.312 Y129.915 E.10237
G1 X116.395 Y129.826 E.02888
G1 X115.767 Y129.727 E.01995
G1 X114.664 Y129.398 E.03608
G1 X113.736 Y129 E.03164
G1 X112.544 Y128.255 E.0441
G1 X111.192 Y126.973 E.0584
G1 X110.163 Y125.406 E.05878
G1 X109.48 Y123.501 E.06347
G1 X109.361 Y122.776 E.02302
G1 X109.28 Y121.672 E.0347
G1 X109.331 Y120.928 E.02337
G1 X109.502 Y119.805 E.03563
G1 X109.799 Y118.855 E.03122
G1 X110.096 Y118.121 E.02482
G1 X110.636 Y117.196 E.03358
G1 X111.04 Y116.606 E.02242
G1 X112.506 Y115.164 E.06448
G1 X114.042 Y114.236 E.05626
G1 X115.67 Y113.691 E.05381
G1 X117.271 Y113.497 E.05059
G1 X118.074 Y113.484 E.02517
G1 X121.059 Y113.591 E.09367
G1 X133.214 Y113.594 E.38111
M73 P4 R32
M73 Q4 S32
G1 X139.395 Y107.414 E.27406
G1 X139.395 Y95.474 E.37435
G1 X139.328 Y94.883 E.01867
G1 X139.189 Y94.486 E.01317
G1 X138.966 Y94.131 E.01317
G1 X138.669 Y93.834 E.01317
G1 X138.314 Y93.611 E.01317
G1 X137.917 Y93.472 E.01317
G1 X137.326 Y93.405 E.01867
G1 X98.354 Y93.405 E1.22191
G1 X97.698 Y93.295 E.02088
M73 P4 R31
G1 X96.801 Y92.888 E.03088
G1 X96.099 Y92.273 E.02927
G1 X95.597 Y91.507 E.02872
G1 X95.317 Y90.582 E.03029
G1 X95.295 Y83.177 E.23216
G1 X95.542 Y82.226 E.03083
G1 X95.614 Y82.091 E.0048
M204 S1000
G1 X95.942 Y82.266 F10800
M204 S800
G1 F1200
G1 X96.171 Y81.837 E.01523
G1 X96.804 Y81.18 E.02862
G1 X97.159 Y80.93 E.01361
G1 X98.297 Y80.572 E.03741
G1 X147.589 Y80.573 E1.54553
G1 X149.186 Y80.76 E.05042
G1 X150.728 Y81.28 E.05101
G1 X152.388 Y82.317 E.06136
G1 X153.544 Y83.488 E.05161
G1 X154.425 Y84.875 E.05153
G1 X155.02 Y86.527 E.05504
G1 X155.22 Y88.093 E.04949
G1 X155.228 Y121.771 E1.05595
G1 X154.988 Y123.607 E.05807
G1 X154.46 Y125.055 E.04832
G1 X153.661 Y126.363 E.04804
G1 X152.441 Y127.639 E.05535
G1 X150.993 Y128.591 E.05436
G1 X149.37 Y129.196 E.05428
G1 X147.576 Y129.428 E.05674
G1 X121.518 Y129.429 E.81701
G1 X120.567 Y129.441 E.02982
G1 X117.336 Y129.538 E.10136
G1 X116.437 Y129.452 E.02832
G1 X115.839 Y129.356 E.01901
M73 Q4 S31
G1 X114.782 Y129.04 E.03457
G1 X113.924 Y128.673 E.02928
G1 X112.76 Y127.946 E.04304
G1 X111.469 Y126.716 E.05591
G1 X110.491 Y125.219 E.05604
G1 X109.841 Y123.391 E.06083
G1 X109.735 Y122.725 E.02116
G1 X109.658 Y121.684 E.03273
G1 X109.705 Y120.977 E.02223
G1 X109.866 Y119.903 E.03403
G1 X110.156 Y118.975 E.03051
G1 X110.44 Y118.276 E.02365
G1 X110.958 Y117.393 E.0321
G1 X111.341 Y116.834 E.02123
G1 X112.72 Y115.475 E.06071
G1 X114.219 Y114.57 E.05491
G1 X115.734 Y114.063 E.05007
G1 X117.307 Y113.872 E.04968
G1 X118.074 Y113.861 E.02408
G1 X121.052 Y113.968 E.09344
G1 X133.37 Y113.972 E.38622
G1 X139.772 Y107.57 E.28386
G1 X139.772 Y95.453 E.37991
G1 X139.698 Y94.798 E.02066
G1 X139.531 Y94.322 E.01583
G1 X139.263 Y93.894 E.01583
G1 X138.906 Y93.537 E.01583
G1 X138.478 Y93.269 E.01583
G1 X138.002 Y93.102 E.01583
G1 X137.347 Y93.028 E.02066
G1 X98.369 Y93.028 E1.22212
G1 X97.827 Y92.94 E.01721
G1 X97.027 Y92.586 E.02744
G1 X96.368 Y92.007 E.0275
G1 X95.929 Y91.327 E.02539
G1 X95.687 Y90.502 E.02694
G1 X95.672 Y83.202 E.22889
G1 X95.914 Y82.319 E.02872
M204 S1000
G1 X96.258 Y82.466 F10800
M204 S800
G1 F1200
G1 X96.488 Y82.041 E.01515
G1 X97.06 Y81.457 E.02562
G1 X97.35 Y81.256 E.01106
G1 X98.326 Y80.949 E.03208
G1 X147.578 Y80.95 E1.54428
G1 X149.122 Y81.132 E.04875
M73 P5 R31
G1 X150.585 Y81.63 E.04845
G1 X152.168 Y82.624 E.0586
M73 Q5 S31
G1 X153.261 Y83.737 E.04891
G1 X154.096 Y85.059 E.04902
G1 X154.649 Y86.596 E.0512
G1 X154.843 Y88.105 E.04771
G1 X154.851 Y121.759 E1.05519
G1 X154.626 Y123.499 E.055
G1 X154.128 Y124.875 E.04589
G1 X153.35 Y126.149 E.04679
G1 X152.185 Y127.362 E.05275
G1 X150.805 Y128.264 E.05169
G1 X149.26 Y128.835 E.05163
G1 X147.564 Y129.051 E.05361
G1 X121.516 Y129.052 E.81671
G1 X120.559 Y129.064 E.03
G1 X117.36 Y129.162 E.10034
G1 X116.479 Y129.077 E.02776
G1 X115.911 Y128.986 E.01805
G1 X114.901 Y128.682 E.03306
G1 X114.111 Y128.345 E.02693
G1 X112.976 Y127.636 E.04196
G1 X111.745 Y126.459 E.0534
G1 X110.82 Y125.033 E.0533
G1 X110.211 Y123.315 E.05716
G1 X110.11 Y122.689 E.01987
G1 X110.035 Y121.67 E.03205
G1 X110.079 Y121.025 E.02027
G1 X110.231 Y120.002 E.03243
G1 X110.514 Y119.094 E.0298
G1 X110.773 Y118.455 E.02163
G1 X111.28 Y117.589 E.03145
G1 X111.642 Y117.062 E.02004
G1 X112.935 Y115.786 E.05698
G1 X114.36 Y114.92 E.05228
G1 X115.799 Y114.435 E.0476
G1 X117.342 Y114.248 E.04874
G1 X118.065 Y114.238 E.02269
G1 X121.046 Y114.345 E.0935
G1 X133.526 Y114.349 E.39133
G1 X140.149 Y107.726 E.29365
G1 X140.149 Y95.432 E.38547
G1 X140.068 Y94.714 E.02266
G1 X139.873 Y94.157 E.01849
G1 X139.559 Y93.658 E.01849
G1 X139.142 Y93.241 E.01849
G1 X138.643 Y92.927 E.01849
G1 X138.086 Y92.732 E.01849
G1 X137.368 Y92.651 E.02266
G1 X98.383 Y92.651 E1.22235
G1 X97.953 Y92.584 E.01364
G1 X97.25 Y92.28 E.02401
G1 X96.667 Y91.777 E.02416
G1 X96.282 Y91.193 E.02193
G1 X96.056 Y90.422 E.02519
G1 X96.049 Y83.228 E.22556
G1 X96.242 Y82.524 E.0229
M204 S1000
G1 X96.604 Y82.626 F10800
M204 S800
G1 F1200
G1 X96.804 Y82.249 E.0134
G1 X97.314 Y81.737 E.02264
