; generated by PrusaSlicer 2.4.0+win64 on 2022-01-07 at 17:22:04 UTC

; 

; external perimeters extrusion width = 0.45mm
; perimeters extrusion width = 0.45mm
; infill extrusion width = 0.45mm
; solid infill extrusion width = 0.45mm
; top infill extrusion width = 0.40mm
; first layer extrusion width = 0.42mm

; external perimeters extrusion width = 0.45mm
; perimeters extrusion width = 0.45mm
; infill extrusion width = 0.45mm
; solid infill extrusion width = 0.45mm
; top infill extrusion width = 0.40mm
; first layer extrusion width = 0.42mm

; external perimeters extrusion width = 0.45mm
; perimeters extrusion width = 0.45mm
; infill extrusion width = 0.45mm
; solid infill extrusion width = 0.45mm
; top infill extrusion width = 0.40mm
; first layer extrusion width = 0.42mm

M73 P0 R115
M73 Q0 S116
M201 X1000 Y1000 Z200 E5000 ; sets maximum accelerations, mm/sec^2
M203 X200 Y200 Z12 E120 ; sets maximum feedrates, mm/sec
M204 P1250 R1250 T1250 ; sets acceleration (P, T) and retract acceleration (R), mm/sec^2
M205 X8.00 Y8.00 Z0.40 E4.50 ; sets the jerk limits, mm/sec
M205 S0 T0 ; sets the minimum extruding and travel feed rate, mm/sec
M107
;TYPE:Custom
M862.3 P "MK3S" ; printer model check
M862.1 P0.4 ; nozzle diameter check
M115 U3.10.0 ; tell printer latest fw version
G90 ; use absolute coordinates
M83 ; extruder relative mode
M104 S240 ; set extruder temp
M140 S85 ; set bed temp
M190 S85 ; wait for bed temp
M109 S240 ; wait for extruder temp
G28 W ; home all without mesh bed level
G80 ; mesh bed leveling
G1 Z0.2 F720
G1 Y-3 F1000 ; go outside print area
G92 E0
G1 X60 E9 F1000 ; intro line
G1 X100 E12.5 F1000 ; intro line
G92 E0
M221 S95

; Don't change E values below. Excessive value can damage the printer.
M907 E430 ; set extruder motor current
G21 ; set units to millimeters
G90 ; use absolute coordinates
M83 ; use relative distances for extrusion
M900 K0.08 ; Filament gcode LA 1.5
M900 K45 ; Filament gcode LA 1.0
M107
;LAYER_CHANGE
;Z:0.2
;HEIGHT:0.2
;BEFORE_LAYER_CHANGE
G92 E0.0
;0.2


G1 E-1 F2100
G1 Z.2 F720
;AFTER_LAYER_CHANGE
;0.2
G1 Z.4
G1 X92.641 Y56.217 F10800
G1 Z.2 F720
G1 E1 F2100
M204 S800
;TYPE:Skirt/Brim
;WIDTH:0.42
G1 F1200
G1 X95.63 Y53.229 E.13249
G1 X97.278 Y52.533 E.05609
G1 X129.173 Y52.094 E1.00016
G1 X138.766 Y52.097 E.30077
G1 X141.22 Y52.341 E.07733
G1 X141.983 Y52.516 E.02455
G1 X143.976 Y53.178 E.06584
G1 X144.687 Y53.508 E.02455
G1 X146.499 Y54.569 E.06584
G1 X147.124 Y55.04 E.02455
G1 X148.676 Y56.455 E.06584
G1 X149.19 Y57.045 E.02455
G1 X150.351 Y58.648 E.06204
G1 X163.319 Y78.669 E.74792
G1 X163.701 Y79.954 E.04204
G1 X163.853 Y129.778 E1.56223
G1 X163.161 Y131.461 E.05704
G1 X160.183 Y134.458 E.13247
G1 X158.504 Y135.159 E.05704
G1 X91.68 Y135.362 E2.09525
G1 X89.997 Y134.671 E.05704
G1 X87 Y131.693 E.13247
G1 X86.299 Y130.014 E.05704
G1 X86.147 Y80.189 E1.56223
G1 X86.224 Y79.583 E.01914
G1 X92.022 Y57.299 E.72197
G1 X92.612 Y56.269 E.03723
M204 S1000
;WIPE_START
G1 F8640
G1 X95.511 Y53.349 E-.95
;WIPE_END
G1 E-.05 F2100
G1 Z.4 F720
G1 X126.504 Y59.13 F10800
G1 Z.2 F720
G1 E1 F2100
M204 S800
G1 F1200
G1 X126.956 Y57.507 E.05284
G1 X127.595 Y56.514 E.03701
G1 X128.489 Y55.658 E.03881
G1 X129.435 Y55.132 E.03396
G1 X130.526 Y54.809 E.03566
G1 X138.88 Y54.766 E.26194
G1 X141.199 Y55.064 E.07329
G1 X143.291 Y55.79 E.06943
G1 X144.917 Y56.717 E.0587
G1 X146.17 Y57.765 E.05123
G1 X147.009 Y58.588 E.03685
G1 X148.145 Y60.152 E.06061
G1 X149.191 Y62.457 E.07937
G1 X149.692 Y64.942 E.07946
G1 X149.692 Y66.783 E.05775
G1 X149.414 Y68.359 E.05016
G1 X149.091 Y69.585 E.03974
G1 X148.36 Y71.217 E.05606
G1 X147.065 Y73.09 E.07139
G1 X145.382 Y74.687 E.07276
G1 X143.402 Y75.9 E.07282
G1 X141.247 Y76.668 E.07171
G1 X138.74 Y76.985 E.07924
G1 X130.876 Y76.985 E.24656
G1 X129.253 Y76.533 E.05282
G1 X128.221 Y75.86 E.03862
G1 X127.306 Y74.864 E.04243
G1 X126.818 Y73.901 E.03384
G1 X126.509 Y72.634 E.04089
G1 X126.504 Y59.19 E.42151
M204 S1000
G1 X126.881 Y59.19 F10800
M204 S800
G1 F1200
G1 X127.311 Y57.638 E.0505
G1 X127.898 Y56.74 E.03365
G1 X128.73 Y55.949 E.036
G1 X129.598 Y55.472 E.03103
G1 X130.606 Y55.178 E.03292
G1 X138.845 Y55.142 E.25834
G1 X141.094 Y55.426 E.07107
G1 X143.15 Y56.14 E.06825
G1 X144.715 Y57.036 E.05653
G1 X145.922 Y58.049 E.04942
G1 X146.734 Y58.846 E.03567
G1 X147.829 Y60.358 E.05853
G1 X148.839 Y62.593 E.0769
G1 X149.318 Y64.997 E.07687
G1 X149.318 Y66.734 E.05447
G1 X149.044 Y68.286 E.04941
G1 X148.74 Y69.445 E.03759
G1 X148.04 Y71.017 E.05393
G1 X146.767 Y72.859 E.07021
G1 X145.138 Y74.399 E.07029
G1 X143.222 Y75.568 E.07036
G1 X141.141 Y76.306 E.06924
G1 X138.728 Y76.608 E.07623
G1 X130.903 Y76.608 E.24536
G1 X129.384 Y76.178 E.04948
G1 X128.483 Y75.588 E.03376
G1 X127.601 Y74.628 E.04088
G1 X127.18 Y73.791 E.0294
G1 X126.881 Y72.566 E.03951
G1 X126.881 Y59.25 E.41752
M204 S1000
G1 X127.258 Y59.25 F10800
M204 S800
G1 F1200
G1 X127.258 Y59.183 E.00209
G1 X127.665 Y57.77 E.04611
G1 X128.173 Y56.998 E.02898
G1 X128.971 Y56.239 E.03453
G1 X129.758 Y55.814 E.02805
G1 X130.684 Y55.548 E.03021
G1 X138.81 Y55.518 E.25479
G1 X140.989 Y55.789 E.06883
G1 X143.01 Y56.49 E.06707
G1 X144.512 Y57.354 E.05433
G1 X145.673 Y58.333 E.04762
G1 X146.458 Y59.104 E.03449
G1 X147.512 Y60.563 E.05643
G1 X148.486 Y62.728 E.07444
G1 X148.941 Y65.015 E.07313
G1 X148.941 Y66.717 E.05336
G1 X148.674 Y68.212 E.04762
G1 X148.389 Y69.306 E.03545
G1 X147.703 Y70.847 E.05289
G1 X146.468 Y72.627 E.06793
G1 X144.894 Y74.111 E.06782
G1 X143.043 Y75.236 E.06789
M73 Q0 S115
G1 X141.035 Y75.943 E.06677
G1 X138.717 Y76.231 E.07324
G1 X130.93 Y76.231 E.24416
G1 X129.516 Y75.824 E.04611
G1 X128.744 Y75.315 E.029
G1 X127.925 Y74.433 E.03775
G1 X127.54 Y73.678 E.02656
G1 X127.258 Y72.543 E.03667
G1 X127.258 Y59.31 E.4149
M204 S1000
G1 X127.635 Y59.31 F10800
M204 S800
G1 F1200
G1 X127.635 Y59.211 E.00311
G1 X128.018 Y57.905 E.04269
G1 X128.448 Y57.257 E.02436
G1 X129.212 Y56.531 E.03305
G1 X129.916 Y56.157 E.025
G1 X130.762 Y55.918 E.02755
G1 X138.776 Y55.893 E.25129
G1 X140.884 Y56.152 E.06659
G1 X142.869 Y56.841 E.06587
G1 X144.309 Y57.672 E.05212
G1 X145.424 Y58.616 E.04582
G1 X146.182 Y59.361 E.03334
G1 X147.176 Y60.736 E.05318
G1 X148.121 Y62.823 E.07184
G1 X148.564 Y65.034 E.0707
G1 X148.564 Y66.7 E.05224
G1 X148.305 Y68.138 E.04582
G1 X148.038 Y69.167 E.03333
G1 X147.366 Y70.678 E.05184
G1 X146.195 Y72.367 E.06445
G1 X144.68 Y73.799 E.06536
G1 X142.899 Y74.887 E.06542
G1 X140.929 Y75.581 E.0655
G1 X138.705 Y75.854 E.07024
G1 X130.957 Y75.854 E.24294
G1 X129.651 Y75.47 E.04269
G1 X129.004 Y75.041 E.02434
G1 X128.247 Y74.235 E.03465
G1 X127.9 Y73.563 E.02372
G1 X127.635 Y72.519 E.03378
G1 X127.635 Y59.37 E.41227
M204 S1000
G1 X128.012 Y59.37 F10800
M204 S800
G1 F1200
G1 X128.012 Y59.239 E.00411
G1 X128.371 Y58.041 E.03922
G1 X128.723 Y57.516 E.01979
G1 X129.453 Y56.822 E.03158
G1 X130.038 Y56.515 E.02072
G1 X130.84 Y56.288 E.02613
G1 X138.743 Y56.269 E.2478
G1 X140.781 Y56.515 E.06436
G1 X142.696 Y57.176 E.06354
G1 X144.105 Y57.99 E.05101
G1 X145.175 Y58.899 E.04402
G1 X145.886 Y59.595 E.03122
G1 X146.859 Y60.941 E.05208
G1 X147.755 Y62.919 E.06808
G1 X148.187 Y65.053 E.06827
G1 X148.187 Y66.683 E.0511
G1 X147.935 Y68.064 E.04402
G1 X147.687 Y69.029 E.03122
G1 X147.028 Y70.508 E.05078
G1 X145.897 Y72.135 E.06216
G1 X144.436 Y73.511 E.06291
G1 X142.721 Y74.554 E.06295
G1 X140.824 Y75.218 E.06301
G1 X138.694 Y75.477 E.06727
G1 X130.985 Y75.477 E.24171
G1 X129.787 Y75.118 E.03922
G1 X129.263 Y74.766 E.01979
G1 X128.568 Y74.036 E.03158
G1 X128.259 Y73.447 E.02087
G1 X128.012 Y72.495 E.03084
G1 X128.012 Y59.43 E.40963
M204 S1000
G1 X128.389 Y59.43 F10800
M204 S800
G1 F1200
G1 X128.389 Y59.268 E.00509
G1 X128.723 Y58.179 E.03569
G1 X128.998 Y57.774 E.01536
G1 X129.654 Y57.142 E.02857
G1 X130.16 Y56.872 E.01798
G1 X130.917 Y56.658 E.02466
G1 X138.71 Y56.645 E.24433
G1 X140.677 Y56.878 E.06213
G1 X142.524 Y57.512 E.0612
G1 X143.901 Y58.308 E.04989
G1 X144.925 Y59.181 E.04221
G1 X145.591 Y59.83 E.02914
G1 X146.524 Y61.115 E.0498
G1 X147.39 Y63.016 E.06548
G1 X147.81 Y65.072 E.06581
G1 X147.81 Y66.666 E.04995
G1 X147.565 Y67.989 E.04221
G1 X147.336 Y68.89 E.02914
G1 X146.691 Y70.338 E.0497
G1 X145.599 Y71.903 E.05985
G1 X144.193 Y73.222 E.06045
G1 X142.543 Y74.221 E.06047
G1 X140.719 Y74.855 E.06052
G1 X138.683 Y75.1 E.06432
G1 X131.014 Y75.1 E.24046
G1 X129.925 Y74.766 E.03569
G1 X129.52 Y74.491 E.01536
G1 X128.888 Y73.834 E.02857
G1 X128.618 Y73.328 E.01801
G1 X128.389 Y72.469 E.02785
G1 X128.389 Y59.49 E.40696
M204 S1000
G1 X128.766 Y59.49 F10800
M204 S800
G1 F1200
G1 X128.766 Y59.297 E.00605
G1 X129.073 Y58.321 E.03207
G1 X129.275 Y58.031 E.01106
M73 P0 R114
G1 X129.859 Y57.46 E.02562
G1 X130.284 Y57.229 E.01518
G1 X130.995 Y57.028 E.02316
G1 X138.677 Y57.021 E.24087
G1 X140.575 Y57.242 E.05991
G1 X142.351 Y57.848 E.05884
G1 X143.698 Y58.625 E.04875
G1 X144.676 Y59.464 E.0404
G1 X145.295 Y60.065 E.02708
G1 X146.208 Y61.321 E.04868
G1 X147.038 Y63.152 E.06302
G1 X147.433 Y65.091 E.06206
G1 X147.433 Y66.648 E.04881
G1 X147.196 Y67.914 E.0404
G1 X146.985 Y68.752 E.02708
G1 X146.354 Y70.168 E.04861
G1 X145.302 Y71.671 E.05753
G1 X143.95 Y72.933 E.05799
G1 X142.365 Y73.888 E.058
G1 X140.616 Y74.492 E.05804
G1 X138.672 Y74.722 E.06138
G1 X131.043 Y74.722 E.23919
G1 X130.067 Y74.416 E.03208
G1 X129.777 Y74.214 E.01106
G1 X129.206 Y73.63 E.02562
G1 X128.975 Y73.206 E.01515
G1 X128.766 Y72.443 E.02478
G1 X128.766 Y59.55 E.40426
M204 S1000
G1 X129.144 Y59.55 F10800
M204 S800
G1 F1200
G1 X129.144 Y59.326 E.00703
G1 X129.401 Y58.51 E.02682
G1 X129.554 Y58.285 E.00855
G1 X130.066 Y57.776 E.02264
G1 X130.409 Y57.585 E.01229
G1 X131.072 Y57.397 E.02163
G1 X138.666 Y57.398 E.23811
G1 X140.473 Y57.605 E.05702
G1 X142.179 Y58.184 E.05647
G1 X143.493 Y58.943 E.0476
G1 X144.426 Y59.746 E.03858
G1 X145 Y60.3 E.02504
G1 X145.892 Y61.527 E.04755
G1 X146.673 Y63.249 E.05927
G1 X147.056 Y65.111 E.0596
G1 X147.056 Y66.63 E.04764
G1 X146.826 Y67.839 E.03858
G1 X146.633 Y68.614 E.02504
G1 X146.017 Y69.998 E.0475
G1 X145.005 Y71.437 E.05519
G1 X143.708 Y72.643 E.05552
G1 X142.189 Y73.554 E.05553
G1 X140.513 Y74.129 E.05556
G1 X138.661 Y74.345 E.05846
G1 X131.072 Y74.345 E.23795
G1 X130.256 Y74.088 E.02682
G1 X130.031 Y73.935 E.00855
G1 X129.522 Y73.423 E.02264
G1 X129.331 Y73.08 E.01229
G1 X129.144 Y72.417 E.02163
G1 X129.144 Y59.61 E.40154
M204 S1000
G1 X129.521 Y59.61 F10800
M204 S800
G1 F1200
G1 X129.521 Y59.355 E.00799
G1 X129.729 Y58.696 E.02167
G1 X129.836 Y58.536 E.00606
G1 X130.277 Y58.089 E.01967
G1 X130.538 Y57.94 E.00942
G1 X131.1 Y57.775 E.01838
G1 X138.656 Y57.775 E.2369
G1 X140.372 Y57.969 E.05415
G1 X142.007 Y58.52 E.05408
G1 X143.289 Y59.26 E.04644
G1 X144.175 Y60.028 E.03676
G1 X144.705 Y60.536 E.02302
G1 X145.575 Y61.733 E.0464
G1 X146.321 Y63.385 E.0568
G1 X146.679 Y65.13 E.05586
G1 X146.679 Y66.612 E.04647
G1 X146.457 Y67.763 E.03676
G1 X146.282 Y68.476 E.02302
G1 X145.68 Y69.827 E.04638
G1 X144.708 Y71.203 E.05283
G1 X143.467 Y72.353 E.05305
G1 X142.013 Y73.22 E.05306
G1 X140.411 Y73.765 E.05307
G1 X138.65 Y73.968 E.05556
G1 X131.101 Y73.968 E.2367
G1 X130.442 Y73.76 E.02167
G1 X130.282 Y73.652 E.00606
G1 X129.835 Y73.212 E.01967
G1 X129.686 Y72.951 E.00942
G1 X129.521 Y72.389 E.01838
G1 X129.521 Y59.67 E.39878
M204 S1000
G1 X129.898 Y59.67 F10800
M204 S800
G1 F1200
G1 X129.898 Y59.385 E.00895
G1 X130.06 Y58.879 E.01667
G1 X130.122 Y58.783 E.00358
G1 X130.493 Y58.399 E.01672
G1 X130.673 Y58.293 E.00656
G1 X131.13 Y58.152 E.015
G1 X138.645 Y58.152 E.23564
G1 X140.31 Y58.341 E.05252
G1 X141.834 Y58.856 E.05045
G1 X143.085 Y59.578 E.04527
G1 X143.924 Y60.31 E.03493
G1 X144.411 Y60.772 E.02103
G1 X145.259 Y61.939 E.04525
G1 X145.956 Y63.482 E.05306
G1 X146.302 Y65.149 E.0534
G1 X146.302 Y66.593 E.04528
G1 X146.088 Y67.686 E.03493
G1 X145.93 Y68.339 E.02103
G1 X145.344 Y69.657 E.04523
G1 X144.412 Y70.969 E.05045
G1 X143.226 Y72.062 E.05059
G1 X141.838 Y72.885 E.05059
G1 X140.31 Y73.401 E.0506
G1 X138.64 Y73.591 E.05269
G1 X131.131 Y73.591 E.23544
G1 X130.625 Y73.429 E.01667
G1 X130.529 Y73.367 E.00358
G1 X130.145 Y72.996 E.01672
G1 X130.039 Y72.816 E.00656
G1 X129.898 Y72.359 E.015
G1 X129.898 Y59.73 E.39597
M204 S1000
G1 X130.275 Y59.73 F10800
M204 S800
G1 F1200
G1 X130.275 Y59.416 E.00986
G1 X130.412 Y59.025 E.01299
G1 X130.714 Y58.705 E.0138
G1 X130.815 Y58.643 E.00372
G1 X131.162 Y58.529 E.01143
G1 X138.635 Y58.529 E.23432
G1 X140.209 Y58.705 E.04967
G1 X141.662 Y59.192 E.04805
G1 X142.88 Y59.895 E.04408
G1 X143.673 Y60.591 E.0331
G1 X144.116 Y61.008 E.01908
G1 X144.942 Y62.145 E.04407
G1 X145.603 Y63.617 E.05059
G1 X145.925 Y65.168 E.04967
G1 X145.925 Y66.574 E.04408
G1 X145.718 Y67.61 E.0331
G1 X145.579 Y68.202 E.01908
G1 X145.007 Y69.486 E.04406
G1 X144.117 Y70.733 E.04805
G1 X142.986 Y71.771 E.04812
G1 X141.664 Y72.55 E.04812
G1 X140.209 Y73.037 E.04812
G1 X138.63 Y73.214 E.04984
G1 X131.162 Y73.214 E.23415
G1 X130.771 Y73.077 E.01299
G1 X130.451 Y72.775 E.0138
G1 X130.389 Y72.674 E.00372
G1 X130.275 Y72.327 E.01143
G1 X130.275 Y59.79 E.3931
M204 S1000
G1 X130.652 Y59.79 F10800
M204 S800
G1 F1200
G1 X130.652 Y59.451 E.01064
G1 X130.728 Y59.238 E.00709
G1 X130.945 Y59.003 E.01002
G1 X131.197 Y58.906 E.00845
G1 X138.625 Y58.906 E.2329
G1 X140.11 Y59.07 E.04684
G1 X141.491 Y59.528 E.04562
G1 X142.675 Y60.212 E.04287
G1 X143.822 Y61.245 E.04842
G1 X144.626 Y62.351 E.04287
G1 X145.239 Y63.715 E.04687
G1 X145.547 Y65.188 E.0472
G1 X145.547 Y66.555 E.04286
G1 X145.226 Y68.065 E.04842
G1 X144.67 Y69.315 E.04287
G1 X143.823 Y70.497 E.04562
G1 X142.747 Y71.478 E.04564
G1 X141.491 Y72.214 E.04564
G1 X140.11 Y72.673 E.04564
G1 X138.619 Y72.837 E.04701
G1 X131.197 Y72.837 E.23273
G1 X130.984 Y72.761 E.00709
G1 X130.749 Y72.544 E.01002
G1 X130.652 Y72.292 E.00845
G1 X130.652 Y59.85 E.39011
M204 S1000
G1 X131.029 Y59.85 F10800
M204 S800
G1 F1200
G1 X131.029 Y59.493 E.01121
G1 X131.058 Y59.423 E.00235
G1 X131.169 Y59.312 E.00495
G1 X131.239 Y59.283 E.00235
G1 X138.615 Y59.283 E.23127
G1 X140.011 Y59.434 E.04404
G1 X141.319 Y59.864 E.04317
G1 X142.469 Y60.528 E.04164
G1 X143.528 Y61.482 E.0447
G1 X144.309 Y62.557 E.04164
G1 X144.886 Y63.85 E.0444
G1 X145.17 Y65.208 E.0435
G1 X145.17 Y66.535 E.04163
G1 X144.874 Y67.93 E.0447
G1 X144.334 Y69.143 E.04165
G1 X143.529 Y70.26 E.04318
G1 X142.509 Y71.185 E.04317
G1 X141.319 Y71.878 E.04317
G1 X140.011 Y72.309 E.04317
G1 X138.609 Y72.46 E.0442
G1 X131.239 Y72.46 E.23111
G1 X131.169 Y72.431 E.00235
G1 X131.058 Y72.32 E.00495
G1 X131.029 Y72.25 E.00235
G1 X131.029 Y59.91 E.38692
M204 S1000
;WIPE_START
G1 F8640
G1 X131.029 Y59.493 E-.09643
G1 X131.058 Y59.423 E-.01732
G1 X131.169 Y59.312 E-.03645
G1 X131.239 Y59.283 E-.01732
G1 X134.627 Y59.283 E-.78249
;WIPE_END
G1 E-.05 F2100
G1 Z.4 F720
G1 X117.331 Y63.005 F10800
G1 Z.2 F720
G1 E1 F2100
M204 S800
G1 F1200
G1 X117.799 Y65.42 E.07713
G1 X117.775 Y67.461 E.064
G1 X117.368 Y69.496 E.06507
G1 X116.485 Y71.618 E.07207
G1 X115.197 Y73.498 E.07145
G1 X113.481 Y75.131 E.07428
G1 X111.533 Y76.326 E.07167
G1 X109.311 Y77.121 E.07399
G1 X109.366 Y77.434 E.00996
G1 X157.104 Y77.337 E1.49681
G1 X157.897 Y77.56 E.02582
G1 X158.641 Y77.901 E.02567
G1 X159.773 Y78.817 E.04567
G1 X160.63 Y80.109 E.04858
G1 X161.043 Y81.653 E.05012
G1 X161.184 Y128.121 E1.45698
G1 X160.567 Y130.093 E.06477
M73 P1 R114
M73 Q1 S115
G1 X160.086 Y130.753 E.0256
G1 X159.327 Y131.503 E.03346
G1 X158.126 Y132.179 E.0432
G1 X156.802 Y132.501 E.04275
G1 X93.337 Y132.694 E1.9899
G1 X91.365 Y132.076 E.06477
G1 X90.705 Y131.596 E.0256
G1 X89.955 Y130.837 E.03346
G1 X89.279 Y129.636 E.0432
G1 X88.957 Y128.311 E.04275
G1 X88.825 Y81.789 E1.45867
G1 X89.406 Y79.928 E.06113
G1 X89.896 Y79.237 E.02657
G1 X90.673 Y78.464 E.03437
G1 X91.826 Y77.808 E.0416
G1 X93.2 Y77.467 E.04439
G1 X97.878 Y77.457 E.14666
G1 X97.925 Y77.135 E.0102
G1 X97.308 Y76.949 E.02022
G1 X96.361 Y76.33 E.03546
G1 X95.41 Y75.302 E.0439
G1 X94.923 Y74.34 E.03382
G1 X94.609 Y73.028 E.04229
G1 X94.609 Y59.569 E.422
G1 X95.061 Y57.946 E.05284
G1 X95.7 Y56.954 E.037
G1 X96.632 Y56.069 E.04029
