; generated by PrusaSlicer 2.4.0+win64 on 2022-01-07 at 17:22:26 UTC

; 

; external perimeters extrusion width = 0.45mm
; perimeters extrusion width = 0.45mm
; infill extrusion width = 0.45mm
; solid infill extrusion width = 0.45mm
; top infill extrusion width = 0.40mm
; first layer extrusion width = 0.42mm

M73 P0 R44
M73 Q0 S45
M201 X1000 Y1000 Z200 E5000 ; sets maximum accelerations, mm/sec^2
M203 X200 Y200 Z12 E120 ; sets maximum feedrates, mm/sec
M204 P1250 R1250 T1250 ; sets acceleration (P, T) and retract acceleration (R), mm/sec^2
M205 X8.00 Y8.00 Z0.40 E4.50 ; sets the jerk limits, mm/sec
M205 S0 T0 ; sets the minimum extruding and travel feed rate, mm/sec
M107
;TYPE:Custom
M862.3 P "MK3S" ; printer model check
M862.1 P0.4 ; nozzle diameter check
M115 U3.10.0 ; tell printer latest fw version
G90 ; use absolute coordinates
M83 ; extruder relative mode
M104 S240 ; set extruder temp
M140 S85 ; set bed temp
M190 S85 ; wait for bed temp
M109 S240 ; wait for extruder temp
G28 W ; home all without mesh bed level
G80 ; mesh bed leveling
G1 Z0.2 F720
G1 Y-3 F1000 ; go outside print area
G92 E0
G1 X60 E9 F1000 ; intro line
M73 Q0 S44
G1 X100 E12.5 F1000 ; intro line
G92 E0
M221 S95

; Don't change E values below. Excessive value can damage the printer.
M907 E430 ; set extruder motor current
G21 ; set units to millimeters
G90 ; use absolute coordinates
M83 ; use relative distances for extrusion
M900 K0.08 ; Filament gcode LA 1.5
M900 K45 ; Filament gcode LA 1.0
M107
;LAYER_CHANGE
;Z:0.2
;HEIGHT:0.2
;BEFORE_LAYER_CHANGE
G92 E0.0
;0.2


G1 E-1 F2100
G1 Z.2 F720
;AFTER_LAYER_CHANGE
;0.2
G1 Z.4
G1 X93.762 Y76.431 F10800
G1 Z.2 F720
G1 E1 F2100
M204 S800
;TYPE:Skirt/Brim
;WIDTH:0.42
G1 F1200
G1 X96.536 Y73.37 E.12952
G1 X98.143 Y72.594 E.05595
G1 X100.836 Y72.426 E.08459
G1 X136.617 Y72.473 E1.12189
G1 X138.076 Y72.977 E.04841
G1 X150.876 Y82.977 E.50929
G1 X154.081 Y86.157 E.14156
G1 X154.705 Y87.256 E.03964
G1 X156.705 Y95.186 E.25643
G1 X156.777 Y95.768 E.01837
G1 X156.777 Y114.592 E.59024
G1 X156.081 Y116.273 E.05704
G1 X152.981 Y119.366 E.13728
G1 X132.981 Y136.936 E.8347
G1 X131.412 Y137.527 E.05257
G1 X118.588 Y137.527 E.40212
G1 X117.131 Y137.029 E.04825
G1 X97.131 Y121.529 E.79336
G1 X93.919 Y118.343 E.14185
G1 X93.223 Y116.668 E.05689
G1 X93.146 Y78.027 E1.21156
G1 X93.741 Y76.487 E.05176
M204 S1000
;WIPE_START
G1 F8640
G1 X96.488 Y73.424 E-.95
;WIPE_END
G1 E-.05 F2100
G1 Z.4 F720
G1 X96.453 Y77.674 F10800
G1 Z.2 F720
G1 E1 F2100
M204 S800
G1 F1200
G1 X96.569 Y77.41 E.00904
G1 X97.388 Y76.406 E.04063
G1 X98.443 Y75.652 E.04067
G1 X99.659 Y75.207 E.04058
G1 X100.906 Y75.088 E.03927
G1 X108.496 Y75.088 E.23801
G1 X109.979 Y75.136 E.04651
G1 X134.805 Y75.137 E.77841
G1 X135.83 Y75.308 E.03256
G1 X137.055 Y75.854 E.04207
G1 X138.071 Y76.701 E.04147
G1 X138.962 Y78.119 E.0525
G1 X139.27 Y79.218 E.03578
G1 X139.303 Y85.141 E.18573
G1 X148.1 Y85.189 E.27583
G1 X149.292 Y85.556 E.03912
G1 X150.362 Y86.222 E.03948
G1 X151.193 Y87.096 E.03784
G1 X151.794 Y88.192 E.03917
G1 X152.113 Y89.59 E.04496
G1 X152.113 Y93.961 E.13705
G1 X152.242 Y94.054 E.00498
G1 X153.28 Y95.149 E.04729
G1 X153.863 Y96.311 E.04077
G1 X154.112 Y97.527 E.03893
G1 X154.079 Y103.77 E.19573
G1 X153.764 Y104.912 E.03716
G1 X153.628 Y105.178 E.00937
G1 X153.752 Y105.421 E.00856
G1 X154.107 Y106.802 E.0447
G1 X154.114 Y112.908 E.19145
G1 X153.66 Y114.549 E.05339
G1 X153.006 Y115.559 E.03771
G1 X152.036 Y116.461 E.04153
G1 X151.03 Y116.979 E.03548
G1 X149.809 Y117.282 E.03946
G1 X134.113 Y117.293 E.49213
G1 X134.089 Y130.66 E.41911
G1 X133.752 Y131.906 E.04048
G1 X133.119 Y132.999 E.03957
G1 X132.183 Y133.921 E.04119
G1 X131.016 Y134.56 E.04173
G1 X129.66 Y134.863 E.04358
G1 X120.275 Y134.863 E.29425
G1 X118.571 Y134.382 E.05551
G1 X117.575 Y133.722 E.03746
G1 X116.864 Y132.972 E.03243
G1 X116.341 Y132.119 E.03137
G1 X115.913 Y130.671 E.04734
G1 X115.887 Y124.934 E.17986
G1 X115.806 Y123.909 E.03224
G1 X115.609 Y123.089 E.02645
G1 X115.286 Y122.31 E.02645
G1 X114.845 Y121.59 E.02647
G1 X114.321 Y120.977 E.02526
G1 X113.647 Y120.397 E.0279
G1 X112.935 Y119.962 E.02616
G1 X112.16 Y119.64 E.02633
G1 X111.343 Y119.444 E.02635
G1 X110.313 Y119.363 E.03237
G1 X99.818 Y119.297 E.32909
G1 X98.637 Y118.912 E.03894
M73 P1 R44
M73 Q1 S44
G1 X97.628 Y118.27 E.0375
G1 X96.8 Y117.394 E.03777
G1 X96.204 Y116.303 E.039
G1 X95.887 Y114.91 E.04479
G1 X95.888 Y87.927 E.84603
G1 X96.032 Y87.01 E.02912
G1 X96.52 Y85.834 E.03992
G1 X97.385 Y84.749 E.04349
G1 X97.742 Y84.477 E.01409
G1 X97.455 Y84.264 E.01122
G1 X96.7 Y83.392 E.03618
G1 X96.117 Y82.217 E.04111
G1 X95.877 Y81.018 E.03837
G1 X95.889 Y79.496 E.04771
G1 X96.039 Y78.619 E.02788
G1 X96.429 Y77.729 E.03047
M204 S1000
G1 X96.77 Y77.877 F10800
M204 S800
G1 F1200
G1 X96.878 Y77.628 E.0085
G1 X97.664 Y76.664 E.03897
G1 X98.639 Y75.975 E.03746
G1 X99.763 Y75.57 E.03745
G1 X100.914 Y75.465 E.03622
G1 X108.493 Y75.465 E.23766
G1 X109.973 Y75.513 E.04642
G1 X134.79 Y75.514 E.77813
G1 X135.7 Y75.663 E.02892
G1 X136.835 Y76.161 E.03884
G1 X137.807 Y76.972 E.03968
G1 X138.607 Y78.249 E.04726
G1 X138.893 Y79.246 E.03253
G1 X138.928 Y85.517 E.19661
G1 X148.018 Y85.558 E.285
G1 X149.116 Y85.891 E.036
G1 X150.105 Y86.499 E.03641
G1 X150.902 Y87.338 E.03626
G1 X151.45 Y88.348 E.03604
G1 X151.736 Y89.611 E.04059
G1 X151.736 Y94.178 E.14323
G1 X151.991 Y94.338 E.00941
G1 X152.957 Y95.345 E.04376
G1 X153.499 Y96.413 E.03755
G1 X153.735 Y97.545 E.03627
G1 X153.702 Y103.742 E.19429
G1 X153.407 Y104.788 E.03408
G1 X153.196 Y105.181 E.01398
G1 X153.394 Y105.542 E.01291
G1 X153.73 Y106.827 E.04164
G1 X153.737 Y112.883 E.18989
G1 X153.327 Y114.37 E.04837
G1 X152.732 Y115.299 E.03459
G1 X151.799 Y116.167 E.03995
G1 X150.918 Y116.618 E.03102
G1 X149.74 Y116.911 E.03806
G1 X133.736 Y116.916 E.50179
G1 X133.718 Y130.588 E.42865
G1 X133.412 Y131.741 E.03743
G1 X132.834 Y132.75 E.03644
G1 X131.978 Y133.603 E.03789
G1 X130.858 Y134.216 E.04004
G1 X129.639 Y134.486 E.03916
G1 X120.301 Y134.486 E.2928
G1 X118.753 Y134.051 E.0504
G1 X117.834 Y133.447 E.03451
G1 X117.151 Y132.726 E.03113
G1 X116.694 Y131.986 E.02727
G1 X116.29 Y130.641 E.04403
G1 X116.264 Y124.919 E.17943
G1 X116.18 Y123.85 E.03361
G1 X115.969 Y122.972 E.02831
G1 X115.623 Y122.138 E.02831
G1 X115.151 Y121.368 E.02833
G1 X114.589 Y120.711 E.0271
G1 X113.87 Y120.091 E.02976
G1 X113.107 Y119.624 E.02804
G1 X112.276 Y119.281 E.02818
G1 X111.402 Y119.071 E.0282
G1 X110.329 Y118.986 E.03374
G1 X99.905 Y118.929 E.32684
G1 X98.817 Y118.58 E.03583
G1 X97.886 Y117.993 E.03452
G1 X97.092 Y117.154 E.03623
G1 X96.548 Y116.147 E.03588
G1 X96.264 Y114.889 E.04043
G1 X96.265 Y87.941 E.84494
G1 X96.39 Y87.133 E.02564
G1 X96.857 Y86.003 E.03833
G1 X97.66 Y85.009 E.04006
G1 X98.429 Y84.462 E.02961
G1 X97.72 Y83.994 E.02665
G1 X97 Y83.163 E.03445
G1 X96.481 Y82.118 E.03659
G1 X96.254 Y81.001 E.03575
G1 X96.266 Y79.514 E.04663
G1 X96.395 Y78.747 E.02437
G1 X96.747 Y77.932 E.02784
M204 S1000
G1 X97.089 Y78.077 F10800
M204 S800
G1 F1200
G1 X97.188 Y77.843 E.00797
G1 X97.904 Y76.956 E.03576
G1 X98.792 Y76.321 E.03421
G1 X99.867 Y75.933 E.03584
G1 X100.921 Y75.843 E.03317
G1 X108.49 Y75.843 E.23732
G1 X109.967 Y75.89 E.04632
G1 X134.776 Y75.891 E.77786
G1 X135.571 Y76.018 E.02526
G1 X136.658 Y76.495 E.03721
G1 X137.541 Y77.24 E.03623
G1 X138.253 Y78.38 E.04214
G1 X138.516 Y79.276 E.02926
G1 X138.553 Y85.893 E.20748
G1 X147.937 Y85.927 E.29421
G1 X148.942 Y86.226 E.03289
G1 X149.851 Y86.779 E.03336
G1 X150.584 Y87.542 E.03318
G1 X151.088 Y88.459 E.03282
G1 X151.359 Y89.632 E.03775
G1 X151.359 Y94.4 E.14948
G1 X151.741 Y94.621 E.01383
G1 X152.635 Y95.543 E.04027
G1 X153.136 Y96.516 E.03431
G1 X153.357 Y97.564 E.03357
G1 X153.325 Y103.713 E.19281
G1 X153.051 Y104.661 E.03094
G1 X152.762 Y105.184 E.01875
G1 X153.036 Y105.665 E.01735
G1 X153.353 Y106.852 E.03853
G1 X153.359 Y112.857 E.18829
G1 X152.972 Y114.241 E.04506
G1 X152.458 Y115.039 E.02976
G1 X151.561 Y115.872 E.03839
G1 X150.806 Y116.257 E.02656
G1 X149.671 Y116.539 E.03667
G1 X133.359 Y116.539 E.51146
G1 X133.347 Y130.516 E.43824
G1 X133.071 Y131.578 E.03439
G1 X132.548 Y132.503 E.03332
G1 X131.771 Y133.287 E.0346
G1 X130.748 Y133.854 E.03668
G1 X129.618 Y134.109 E.03634
G1 X120.326 Y134.109 E.29133
G1 X118.935 Y133.719 E.04532
G1 X118.092 Y133.171 E.03152
G1 X117.437 Y132.481 E.02983
G1 X117.047 Y131.852 E.02321
G1 X116.667 Y130.611 E.04067
G1 X116.641 Y124.903 E.17898
G1 X116.553 Y123.791 E.03497
G1 X116.328 Y122.855 E.03017
G1 X115.96 Y121.966 E.03017
G1 X115.457 Y121.145 E.03019
G1 X114.857 Y120.444 E.02894
G1 X114.093 Y119.786 E.03163
G1 X113.279 Y119.287 E.02993
G1 X112.393 Y118.921 E.03004
G1 X111.461 Y118.697 E.03006
G1 X110.345 Y118.609 E.03511
G1 X99.991 Y118.561 E.32464
G1 X98.996 Y118.247 E.03273
G1 X98.141 Y117.715 E.03156
G1 X97.41 Y116.95 E.03317
G1 X96.91 Y116.036 E.03267
G1 X96.641 Y114.867 E.0376
G1 X96.642 Y87.955 E.84383
G1 X96.747 Y87.255 E.02217
G1 X97.195 Y86.174 E.03671
G1 X97.934 Y85.269 E.03663
G1 X99.114 Y84.448 E.04506
G1 X97.986 Y83.725 E.04201
G1 X97.301 Y82.934 E.03282
G1 X96.845 Y82.017 E.0321
G1 X96.631 Y80.984 E.0331
G1 X96.643 Y79.531 E.04555
G1 X96.751 Y78.873 E.02091
G1 X97.066 Y78.132 E.02522
M204 S1000
G1 X97.413 Y78.28 F10800
M204 S800
G1 F1200
G1 X97.525 Y78.016 E.00899
G1 X98.179 Y77.215 E.03244
G1 X98.987 Y76.644 E.03101
G1 X99.969 Y76.297 E.03265
G1 X100.929 Y76.22 E.03018
G1 X108.487 Y76.22 E.237
G1 X109.961 Y76.267 E.04622
G1 X134.76 Y76.268 E.77756
G1 X135.486 Y76.386 E.02305
M73 P1 R43
G1 X136.479 Y76.828 E.03407
G1 X137.273 Y77.507 E.03278
G1 X137.899 Y78.514 E.03716
G1 X138.139 Y79.306 E.02594
G1 X138.178 Y86.269 E.21833
G1 X147.857 Y86.297 E.30349
G1 X148.77 Y86.562 E.0298
M73 P2 R43
M73 Q2 S44
G1 X149.599 Y87.06 E.03031
G1 X150.268 Y87.748 E.0301
G1 X150.728 Y88.572 E.02958
G1 X150.982 Y89.654 E.03486
G1 X150.982 Y94.625 E.15585
G1 X151.493 Y94.907 E.01829
G1 X152.313 Y95.742 E.03669
G1 X152.789 Y96.666 E.0326
G1 X152.98 Y97.581 E.02932
G1 X152.948 Y103.684 E.19133
G1 X152.696 Y104.532 E.02774
G1 X152.325 Y105.189 E.02367
G1 X152.68 Y105.79 E.02188
G1 X152.975 Y106.878 E.03536
G1 X152.982 Y112.832 E.18668
G1 X152.638 Y114.063 E.04007
G1 X152.182 Y114.781 E.02669
G1 X151.364 Y115.55 E.0352
G1 X150.692 Y115.897 E.02372
G1 X149.648 Y116.162 E.03378
G1 X132.982 Y116.162 E.52253
G1 X132.976 Y130.445 E.44782
G1 X132.712 Y131.459 E.03287
G1 X132.261 Y132.258 E.02875
G1 X131.562 Y132.972 E.03135
G1 X130.637 Y133.493 E.03329
G1 X129.596 Y133.732 E.03347
G1 X120.352 Y133.732 E.28984
G1 X119.114 Y133.387 E.0403
G1 X118.349 Y132.895 E.02851
G1 X117.724 Y132.235 E.02851
G1 X117.4 Y131.715 E.01921
G1 X117.044 Y130.581 E.03727
G1 X117.018 Y124.887 E.17852
G1 X116.927 Y123.732 E.03634
G1 X116.688 Y122.738 E.03204
G1 X116.297 Y121.794 E.03203
G1 X115.763 Y120.923 E.03205
G1 X115.125 Y120.177 E.03077
G1 X114.316 Y119.48 E.03349
G1 X113.45 Y118.95 E.03181
G1 X112.51 Y118.561 E.0319
G1 X111.52 Y118.323 E.03192
G1 X110.36 Y118.232 E.03648
G1 X100.075 Y118.192 E.32248
G1 X99.172 Y117.913 E.02965
G1 X98.395 Y117.435 E.0286
G1 X97.727 Y116.744 E.03013
G1 X97.27 Y115.924 E.02944
G1 X97.018 Y114.845 E.03472
M73 Q2 S43
G1 X97.019 Y87.968 E.84273
G1 X97.105 Y87.375 E.01878
G1 X97.505 Y86.39 E.03335
G1 X98.209 Y85.529 E.03486
G1 X99.084 Y84.928 E.03329
G1 X100.077 Y84.603 E.03275
G1 X100.074 Y84.326 E.00866
G1 X99.219 Y84.067 E.02801
G1 X98.253 Y83.457 E.03584
G1 X97.602 Y82.706 E.03114
G1 X97.195 Y81.874 E.02906
G1 X97.008 Y80.967 E.02902
G1 X97.02 Y79.548 E.0445
G1 X97.107 Y78.998 E.01744
G1 X97.389 Y78.335 E.0226
M204 S1000
G1 X97.732 Y78.478 F10800
M204 S800
G1 F1200
G1 X97.834 Y78.233 E.00833
G1 X98.454 Y77.474 E.03071
G1 X99.18 Y76.969 E.02773
G1 X100.068 Y76.662 E.02947
G1 X100.935 Y76.597 E.02725
G1 X108.484 Y76.597 E.2367
G1 X109.955 Y76.644 E.04613
G1 X134.746 Y76.645 E.7773
G1 X135.358 Y76.742 E.01944
G1 X136.255 Y77.134 E.0307
G1 X137.005 Y77.774 E.03093
G1 X137.564 Y78.688 E.03359
G1 X137.77 Y79.386 E.02281
G1 X137.803 Y86.645 E.22761
G1 X147.778 Y86.666 E.31276
G1 X148.64 Y86.917 E.02816
G1 X149.381 Y87.368 E.0272
G1 X149.978 Y87.991 E.02704
G1 X150.385 Y88.73 E.02647
G1 X150.605 Y89.676 E.03044
G1 X150.605 Y94.854 E.16236
G1 X151.248 Y95.194 E.0228
G1 X151.991 Y95.941 E.03303
G1 X152.442 Y96.816 E.03085
G1 X152.603 Y97.599 E.02508
G1 X152.571 Y103.653 E.18983
G1 X152.343 Y104.4 E.02448
G1 X151.993 Y105.008 E.02199
G1 X151.865 Y105.161 E.00625
G1 X152.324 Y105.917 E.02775
G1 X152.598 Y106.905 E.03213
G1 X152.605 Y112.805 E.18502
G1 X152.284 Y113.932 E.03674
G1 X151.905 Y114.524 E.02203
G1 X151.165 Y115.229 E.03206
G1 X150.575 Y115.538 E.02087
G1 X149.623 Y115.785 E.03084
G1 X132.605 Y115.785 E.53358
G1 X132.605 Y130.373 E.4574
G1 X132.354 Y131.341 E.03135
G1 X131.973 Y132.014 E.02424
G1 X131.35 Y132.659 E.02812
G1 X130.523 Y133.133 E.02989
G1 X129.574 Y133.355 E.03056
G1 X120.378 Y133.355 E.28835
G1 X119.294 Y133.054 E.03526
G1 X118.573 Y132.59 E.02689
G1 X118.032 Y132.017 E.02473
G1 X117.752 Y131.578 E.01633
G1 X117.412 Y130.495 E.03557
G1 X117.395 Y124.872 E.17631
G1 X117.3 Y123.673 E.03773
G1 X117.048 Y122.621 E.0339
G1 X116.634 Y121.623 E.03389
G1 X116.069 Y120.701 E.03391
G1 X115.393 Y119.91 E.03261
G1 X114.538 Y119.174 E.03535
G1 X113.622 Y118.613 E.0337
G1 X112.627 Y118.202 E.03375
G1 X111.579 Y117.95 E.03378
G1 X110.376 Y117.855 E.03786
G1 X100.16 Y117.824 E.32031
G1 X99.307 Y117.56 E.02798
G1 X98.615 Y117.128 E.02557
G1 X98.017 Y116.502 E.02714
G1 X97.614 Y115.766 E.02633
G1 X97.395 Y114.824 E.03031
G1 X97.395 Y88.005 E.8409
G1 X97.464 Y87.494 E.01616
G1 X97.844 Y86.559 E.03164
G1 X98.481 Y85.791 E.0313
G1 X99.272 Y85.256 E.02993
G1 X100.139 Y84.98 E.02853
G1 X105.395 Y84.949 E.1648
G1 X105.395 Y84.008 E.02952
G1 X100.937 Y84.004 E.13976
G1 X100.082 Y83.934 E.02691
G1 X99.397 Y83.733 E.02237
G1 X98.478 Y83.153 E.0341
G1 X97.929 Y82.517 E.02634
G1 X97.559 Y81.773 E.02604
G1 X97.382 Y80.911 E.0276
G1 X97.397 Y79.565 E.04221
G1 X97.465 Y79.121 E.01408
G1 X97.709 Y78.533 E.01996
M204 S1000
G1 X98.055 Y78.679 F10800
M204 S800
G1 F1200
G1 X98.17 Y78.406 E.0093
G1 X98.727 Y77.736 E.0273
G1 X99.371 Y77.296 E.02447
G1 X100.165 Y77.027 E.02629
G1 X100.941 Y76.974 E.02439
G1 X108.481 Y76.974 E.23642
G1 X109.949 Y77.021 E.04603
G1 X134.732 Y77.022 E.77707
G1 X135.233 Y77.098 E.0159
G1 X136.033 Y77.439 E.02726
G1 X136.737 Y78.041 E.02902
G1 X137.227 Y78.86 E.02994
G1 X137.4 Y79.464 E.01971
G1 X137.427 Y87.022 E.23698
G1 X147.7 Y87.036 E.32213
G1 X148.469 Y87.254 E.02503
G1 X149.129 Y87.65 E.02414
G1 X149.66 Y88.195 E.02388
G1 X150.042 Y88.889 E.02483
G1 X150.228 Y89.697 E.026
G1 X150.228 Y95.087 E.16898
G1 X151.005 Y95.484 E.02737
G1 X151.67 Y96.141 E.0293
G1 X152.094 Y96.965 E.02906
G1 X152.226 Y97.616 E.02083
G1 X152.194 Y103.622 E.18832
G1 X151.99 Y104.265 E.02115
G1 X151.682 Y104.794 E.0192
G1 X151.317 Y105.179 E.01664
G1 X151.619 Y105.482 E.01343
G1 X151.969 Y106.047 E.02085
G1 X152.221 Y106.932 E.02884
G1 X152.228 Y112.78 E.18335
G1 X151.95 Y113.755 E.0318
G1 X151.626 Y114.27 E.01907
G1 X150.963 Y114.909 E.02889
G1 X150.456 Y115.18 E.01801
G1 X149.598 Y115.408 E.02785
G1 X132.228 Y115.408 E.54462
G1 X132.228 Y130.348 E.46843
G1 X131.996 Y131.218 E.02825
G1 X131.659 Y131.804 E.02118
G1 X131.1 Y132.376 E.02506
G1 X130.362 Y132.791 E.02655
G1 X129.553 Y132.978 E.02606
G1 X120.403 Y132.978 E.28689
G1 X119.474 Y132.721 E.03022
G1 X118.797 Y132.286 E.02525
G1 X118.337 Y131.796 E.02106
G1 X118.103 Y131.439 E.01339
G1 X117.781 Y130.41 E.03381
G1 X117.772 Y124.857 E.1741
G1 X117.674 Y123.613 E.03912
G1 X117.408 Y122.504 E.03576
G1 X116.971 Y121.451 E.03576
G1 X116.375 Y120.478 E.03577
G1 X115.661 Y119.643 E.03445
M73 P3 R43
M73 Q3 S43
G1 X114.761 Y118.869 E.03722
G1 X113.793 Y118.276 E.03558
G1 X112.744 Y117.842 E.03561
G1 X111.639 Y117.576 E.03564
G1 X110.391 Y117.478 E.03924
G1 X100.242 Y117.455 E.31821
G1 X99.483 Y117.225 E.02486
G1 X98.869 Y116.848 E.02261
G1 X98.335 Y116.298 E.02401
G1 X97.957 Y115.608 E.02469
G1 X97.772 Y114.803 E.02589
G1 X97.772 Y88.018 E.83982
G1 X97.834 Y87.569 E.01422
