; generated by PrusaSlicer 2.4.0+win64 on 2022-01-07 at 17:22:39 UTC

; 

; external perimeters extrusion width = 0.45mm
; perimeters extrusion width = 0.45mm
; infill extrusion width = 0.45mm
; solid infill extrusion width = 0.45mm
; top infill extrusion width = 0.40mm
; first layer extrusion width = 0.42mm

M73 P0 R140
M73 Q0 S143
M201 X1000 Y1000 Z200 E5000 ; sets maximum accelerations, mm/sec^2
M203 X200 Y200 Z12 E120 ; sets maximum feedrates, mm/sec
M204 P1250 R1250 T1250 ; sets acceleration (P, T) and retract acceleration (R), mm/sec^2
M205 X8.00 Y8.00 Z0.40 E4.50 ; sets the jerk limits, mm/sec
M205 S0 T0 ; sets the minimum extruding and travel feed rate, mm/sec
M107
;TYPE:Custom
M862.3 P "MK3S" ; printer model check
M862.1 P0.4 ; nozzle diameter check
M115 U3.10.0 ; tell printer latest fw version
G90 ; use absolute coordinates
M83 ; extruder relative mode
M104 S240 ; set extruder temp
M140 S85 ; set bed temp
M190 S85 ; wait for bed temp
M109 S240 ; wait for extruder temp
G28 W ; home all without mesh bed level
G80 ; mesh bed leveling
G1 Z0.2 F720
G1 Y-3 F1000 ; go outside print area
G92 E0
G1 X60 E9 F1000 ; intro line
G1 X100 E12.5 F1000 ; intro line
G92 E0
M221 S95

; Don't change E values below. Excessive value can damage the printer.
M907 E430 ; set extruder motor current
G21 ; set units to millimeters
G90 ; use absolute coordinates
M83 ; use relative distances for extrusion
M900 K0.08 ; Filament gcode LA 1.5
M900 K45 ; Filament gcode LA 1.0
M107
;LAYER_CHANGE
;Z:0.2
;HEIGHT:0.2
;BEFORE_LAYER_CHANGE
G92 E0.0
;0.2


G1 E-1 F2100
G1 Z.2 F720
;AFTER_LAYER_CHANGE
;0.2
G1 Z.4
G1 X94.026 Y49.314 F10800
G1 Z.2 F720
G1 E1 F2100
M204 S800
;TYPE:Skirt/Brim
;WIDTH:0.42
G1 F1200
G1 X129.526 Y6.814 E1.73628
G1 X132.657 Y3.669 E.13913
G1 X134.338 Y2.973 E.05704
G1 X151.162 Y2.973 E.52754
G1 X152.843 Y3.669 E.05704
G1 X155.831 Y6.657 E.13247
G1 X156.527 Y8.338 E.05704
G1 X156.527 Y201.662 E6.06157
G1 X155.831 Y203.343 E.05704
G1 X152.843 Y206.331 E.13247
G1 X151.162 Y207.027 E.05704
G1 X98.838 Y207.027 E1.64061
G1 X97.157 Y206.331 E.05704
G1 X94.169 Y203.343 E.13247
G1 X93.473 Y201.662 E.05704
G1 X93.473 Y50.838 E4.72901
G1 X94.005 Y49.37 E.04894
M204 S1000
;WIPE_START
G1 F8640
G1 X96.642 Y46.211 E-.95
;WIPE_END
G1 E-.05 F2100
G1 Z.4 F720
G1 X96.797 Y50.492 F10800
G1 Z.2 F720
G1 E1 F2100
M204 S800
G1 F1200
G1 X97.784 Y49.314 E.04817
G1 X99.051 Y48.515 E.04698
G1 X100.53 Y48.137 E.04787
G1 X131.637 Y48.137 E.97531
G1 X131.637 Y10.101 E1.19256
M73 Q0 S142
G1 X131.958 Y8.686 E.04552
G1 X132.567 Y7.584 E.03948
G1 X133.464 Y6.661 E.04036
G1 X134.572 Y6.006 E.04036
G1 X135.782 Y5.669 E.03937
G1 X149.595 Y5.656 E.4331
G1 X150.544 Y5.86 E.03043
G1 X151.44 Y6.251 E.03067
G1 X152.562 Y7.146 E.04499
G1 X153.455 Y8.484 E.05044
G1 X153.863 Y10.029 E.05011
G1 X153.863 Y199.845 E5.95156
G1 X153.769 Y200.599 E.02381
G1 X153.198 Y202.02 E.04804
G1 X152.216 Y203.186 E.04778
G1 X150.949 Y203.985 E.04698
G1 X149.47 Y204.363 E.04787
G1 X100.655 Y204.363 E1.53056
G1 X99.901 Y204.269 E.02381
G1 X98.48 Y203.698 E.04804
G1 X97.314 Y202.716 E.04778
G1 X96.515 Y201.449 E.04698
G1 X96.137 Y199.97 E.04787
G1 X96.137 Y179.503 E.64172
G1 X96.758 Y177.536 E.06469
G1 X97.231 Y176.888 E.02515
G1 X97.905 Y176.204 E.0301
G1 X99.15 Y175.477 E.0452
G1 X100.532 Y175.137 E.04464
G1 X130.993 Y175.137 E.95508
G1 X131.4 Y175.081 E.01287
M73 P0 R139
G1 X131.532 Y174.975 E.00531
G1 X131.597 Y174.84 E.00469
G1 X131.637 Y174.491 E.01102
G1 X131.637 Y78.009 E3.02512
G1 X131.597 Y77.66 E.01102
G1 X131.527 Y77.515 E.00505
G1 X131.351 Y77.404 E.00652
G1 X130.991 Y77.363 E.01137
G1 X100.532 Y77.363 E.95501
G1 X99.216 Y77.048 E.04245
G1 X98.072 Y76.427 E.04081
G1 X97.259 Y75.643 E.0354
G1 X96.761 Y74.969 E.02629
G1 X96.137 Y72.997 E.06485
G1 X96.137 Y52.655 E.63782
G1 X96.231 Y51.901 E.02381
G1 X96.775 Y50.547 E.04575
M204 S1000
G1 X97.111 Y50.697 F10800
M204 S800
G1 F1200
G1 X98.012 Y49.615 E.04414
G1 X99.176 Y48.872 E.04329
G1 X100.555 Y48.514 E.04468
G1 X132.014 Y48.514 E.98637
G1 X132.014 Y10.122 E1.20374
G1 X132.302 Y8.843 E.04112
G1 X132.857 Y7.826 E.0363
G1 X133.68 Y6.971 E.03723
G1 X134.698 Y6.362 E.0372
G1 X135.858 Y6.039 E.03776
G1 X149.535 Y6.029 E.42883
G1 X150.445 Y6.225 E.02919
G1 X151.265 Y6.586 E.02809
G1 X152.303 Y7.421 E.04178
G1 X153.099 Y8.612 E.0449
G1 X153.486 Y10.054 E.04682
G1 X153.486 Y199.833 E5.95039
G1 X153.398 Y200.527 E.02194
G1 X152.889 Y201.803 E.04306
G1 X151.988 Y202.885 E.04414
G1 X150.824 Y203.628 E.04329
G1 X149.445 Y203.986 E.04468
G1 X100.667 Y203.986 E1.52941
G1 X99.973 Y203.898 E.02194
G1 X98.697 Y203.389 E.04306
G1 X97.615 Y202.488 E.04414
G1 X96.872 Y201.324 E.04329
G1 X96.514 Y199.945 E.04468
G1 X96.514 Y179.532 E.64005
G1 X97.082 Y177.732 E.05917
G1 X97.509 Y177.142 E.02285
G1 X98.156 Y176.487 E.02887
G1 X99.268 Y175.836 E.04039
G1 X100.556 Y175.514 E.04163
G1 X131.012 Y175.514 E.95494
G1 X131.414 Y175.468 E.01268
G1 X131.57 Y175.414 E.00517
G1 X131.709 Y175.326 E.00517
G1 X131.826 Y175.209 E.00517
G1 X131.914 Y175.07 E.00517
G1 X131.968 Y174.914 E.00517
G1 X132.014 Y174.512 E.01268
G1 X132.014 Y77.988 E3.02645
G1 X131.968 Y77.586 E.01268
M73 P1 R139
M73 Q1 S142
G1 X131.914 Y77.43 E.00517
G1 X131.826 Y77.291 E.00517
G1 X131.709 Y77.174 E.00517
G1 X131.57 Y77.086 E.00517
G1 X131.414 Y77.032 E.00517
G1 X131.012 Y76.986 E.01268
G1 X100.555 Y76.986 E.95496
G1 X99.329 Y76.687 E.03958
G1 X98.315 Y76.138 E.03616
G1 X97.532 Y75.383 E.03408
G1 X97.083 Y74.771 E.0238
G1 X96.514 Y72.968 E.05928
G1 X96.514 Y52.667 E.63653
G1 X96.602 Y51.973 E.02194
G1 X97.089 Y50.753 E.04118
M204 S1000
G1 X97.438 Y50.894 F10800
M204 S800
G1 F1200
G1 X98.281 Y49.881 E.0413
G1 X99.351 Y49.207 E.03967
G1 X100.578 Y48.891 E.03974
G1 X132.391 Y48.891 E.99745
G1 X132.391 Y10.143 E1.21492
G1 X132.645 Y9 E.03671
G1 X133.175 Y8.03 E.03464
G1 X133.932 Y7.253 E.03402
G1 X134.867 Y6.7 E.03407
G1 X135.933 Y6.41 E.03463
G1 X149.477 Y6.402 E.42467
G1 X150.312 Y6.578 E.02674
M73 Q1 S141
G1 X151.09 Y6.92 E.02666
G1 X152.043 Y7.695 E.0385
G1 X152.767 Y8.793 E.04126
G1 X153.109 Y10.078 E.0417
G1 X153.109 Y199.821 E5.94924
G1 X153.027 Y200.454 E.02003
G1 X152.551 Y201.633 E.03985
G1 X151.719 Y202.619 E.04044
G1 X150.649 Y203.293 E.03967
G1 X149.422 Y203.609 E.03974
G1 X100.679 Y203.609 E1.52828
G1 X100.046 Y203.527 E.02003
G1 X98.867 Y203.051 E.03985
G1 X97.881 Y202.219 E.04044
G1 X97.207 Y201.149 E.03967
G1 X96.891 Y199.922 E.03974
G1 X96.891 Y179.561 E.63841
G1 X97.405 Y177.928 E.05368
G1 X97.788 Y177.396 E.02054
G1 X98.406 Y176.77 E.0276
G1 X99.433 Y176.176 E.03719
G1 X100.579 Y175.891 E.03701
G1 X131.033 Y175.891 E.95489
G1 X131.498 Y175.838 E.01468
G1 X131.734 Y175.756 E.00784
G1 X131.946 Y175.623 E.00784
G1 X132.123 Y175.446 E.00784
G1 X132.256 Y175.234 E.00784
G1 X132.338 Y174.998 E.00784
G1 X132.391 Y174.533 E.01468
G1 X132.391 Y77.967 E3.02778
G1 X132.338 Y77.502 E.01468
M73 P1 R138
G1 X132.256 Y77.266 E.00784
G1 X132.123 Y77.054 E.00784
G1 X131.946 Y76.877 E.00784
G1 X131.734 Y76.744 E.00784
G1 X131.498 Y76.662 E.00784
G1 X131.033 Y76.609 E.01468
G1 X100.579 Y76.609 E.95489
G1 X99.443 Y76.327 E.03668
G1 X98.558 Y75.848 E.03155
G1 X97.806 Y75.123 E.03275
G1 X97.406 Y74.574 E.0213
G1 X96.891 Y72.939 E.05375
G1 X96.891 Y52.679 E.63524
G1 X96.973 Y52.046 E.02003
G1 X97.416 Y50.95 E.03706
M204 S1000
G1 X97.758 Y51.087 F10800
M204 S800
G1 F1200
G1 X98.509 Y50.182 E.03688
G1 X99.476 Y49.564 E.036
G1 X100.603 Y49.268 E.03652
G1 X132.768 Y49.268 E1.0085
G1 X132.768 Y10.163 E1.22611
G1 X132.99 Y9.155 E.03237
G1 X133.464 Y8.274 E.03136
G1 X134.184 Y7.535 E.03236
G1 X135.034 Y7.039 E.03086
G1 X136.006 Y6.78 E.03152
G1 X149.42 Y6.775 E.4206
G1 X150.178 Y6.931 E.02427
G1 X150.914 Y7.255 E.02519
G1 X151.78 Y7.967 E.03516
G1 X152.435 Y8.973 E.03763
G1 X152.732 Y10.102 E.03663
G1 X152.732 Y199.808 E5.94809
G1 X152.656 Y200.382 E.01814
G1 X152.242 Y201.415 E.03492
G1 X151.491 Y202.318 E.03681
G1 X150.524 Y202.936 E.036
G1 X149.397 Y203.232 E.03652
G1 X100.692 Y203.232 E1.52711
G1 X100.118 Y203.156 E.01814
G1 X99.085 Y202.742 E.03492
G1 X98.182 Y201.991 E.03681
G1 X97.564 Y201.024 E.036
G1 X97.268 Y199.897 E.03652
G1 X97.268 Y179.589 E.63673
G1 X97.729 Y178.123 E.04821
G1 X98.067 Y177.65 E.0182
G1 X98.657 Y177.053 E.02634
G1 X99.552 Y176.534 E.03241
G1 X100.602 Y176.268 E.03399
G1 X131.054 Y176.268 E.9548
G1 X131.583 Y176.208 E.01667
G1 X131.899 Y176.098 E.0105
G1 X132.183 Y175.919 E.0105
G1 X132.419 Y175.683 E.0105
G1 X132.598 Y175.399 E.0105
G1 X132.708 Y175.083 E.0105
G1 X132.768 Y174.554 E.01667
G1 X132.768 Y77.946 E3.0291
G1 X132.708 Y77.417 E.01667
G1 X132.598 Y77.101 E.0105
G1 X132.419 Y76.817 E.0105
G1 X132.183 Y76.581 E.0105
G1 X131.899 Y76.402 E.0105
G1 X131.583 Y76.292 E.0105
G1 X131.054 Y76.232 E.01667
G1 X100.602 Y76.232 E.9548
G1 X99.559 Y75.968 E.03376
G1 X98.801 Y75.559 E.02699
G1 X98.08 Y74.864 E.0314
G1 X97.73 Y74.378 E.01877
G1 X97.268 Y72.911 E.04825
G1 X97.268 Y52.692 E.63394
G1 X97.344 Y52.118 E.01814
G1 X97.735 Y51.143 E.03297
M204 S1000
G1 X98.084 Y51.285 F10800
M204 S800
G1 F1200
G1 X98.777 Y50.449 E.03405
G1 X99.652 Y49.899 E.03239
G1 X100.627 Y49.645 E.03159
G1 X133.145 Y49.645 E1.01958
G1 X133.145 Y10.183 E1.2373
G1 X133.336 Y9.307 E.02809
G1 X133.755 Y8.515 E.0281
G1 X134.399 Y7.845 E.02914
G1 X135.157 Y7.397 E.02763
G1 X136.079 Y7.151 E.02992
G1 X149.365 Y7.148 E.41657
G1 X150.046 Y7.285 E.02177
G1 X150.737 Y7.589 E.02369
G1 X151.517 Y8.238 E.03181
G1 X152.079 Y9.1 E.03225
G1 X152.355 Y10.128 E.03337
G1 X152.355 Y199.795 E5.94689
G1 X152.286 Y200.307 E.01618
M73 Q1 S140
G1 X151.904 Y201.244 E.03174
G1 X151.223 Y202.051 E.03312
G1 X150.348 Y202.601 E.03239
G1 X149.373 Y202.855 E.03159
G1 X100.705 Y202.855 E1.52596
G1 X100.193 Y202.786 E.01618
G1 X99.256 Y202.404 E.03174
G1 X98.449 Y201.723 E.03312
G1 X97.899 Y200.848 E.03239
G1 X97.645 Y199.873 E.03159
G1 X97.645 Y179.618 E.63508
G1 X98.054 Y178.316 E.04279
G1 X98.346 Y177.904 E.01584
G1 X98.908 Y177.335 E.02506
G1 X99.672 Y176.893 E.02768
G1 X100.627 Y176.645 E.03095
G1 X131.076 Y176.645 E.9547
G1 X131.667 Y176.578 E.01867
G1 X132.064 Y176.439 E.01317
G1 X132.419 Y176.216 E.01317
G1 X132.716 Y175.919 E.01317
G1 X132.939 Y175.564 E.01317
G1 X133.078 Y175.167 E.01317
G1 X133.145 Y174.576 E.01867
G1 X133.145 Y77.924 E3.03043
G1 X133.078 Y77.333 E.01867
M73 P2 R138
G1 X132.939 Y76.936 E.01317
G1 X132.716 Y76.581 E.01317
G1 X132.419 Y76.284 E.01317
G1 X132.064 Y76.061 E.01317
G1 X131.667 Y75.922 E.01317
G1 X131.076 Y75.855 E.01867
G1 X100.627 Y75.855 E.9547
G1 X99.676 Y75.608 E.03081
M73 P2 R137
M73 Q2 S140
G1 X99.044 Y75.269 E.02247
G1 X98.355 Y74.605 E.03003
G1 X98.054 Y74.184 E.01621
G1 X97.645 Y72.882 E.0428
G1 X97.645 Y52.705 E.63264
G1 X97.714 Y52.193 E.01618
G1 X98.061 Y51.34 E.02888
M204 S1000
G1 X98.409 Y51.484 F10800
M204 S800
G1 F1200
G1 X98.432 Y51.429 E.00188
G1 X99.044 Y50.716 E.02945
G1 X99.777 Y50.255 E.02714
G1 X100.652 Y50.022 E.0284
G1 X133.522 Y50.022 E1.03061
G1 X133.522 Y10.203 E1.24851
G1 X133.681 Y9.461 E.02379
G1 X134.075 Y8.716 E.0264
G1 X134.651 Y8.127 E.02583
G1 X135.279 Y7.755 E.02291
G1 X136.152 Y7.522 E.02833
G1 X149.345 Y7.526 E.41365
G1 X149.949 Y7.65 E.01932
G1 X150.558 Y7.922 E.02093
G1 X151.251 Y8.507 E.02843
G1 X151.745 Y9.278 E.0287
G1 X151.978 Y10.152 E.02837
G1 X151.978 Y199.782 E5.94571
G1 X151.916 Y200.23 E.0142
G1 X151.568 Y201.071 E.02853
G1 X150.956 Y201.784 E.02945
G1 X150.223 Y202.245 E.02714
G1 X149.348 Y202.478 E.0284
G1 X100.718 Y202.478 E1.52476
G1 X100.27 Y202.416 E.0142
G1 X99.429 Y202.068 E.02853
G1 X98.716 Y201.456 E.02945
G1 X98.255 Y200.723 E.02714
G1 X98.022 Y199.848 E.0284
G1 X98.022 Y179.647 E.63339
G1 X98.38 Y178.509 E.03741
G1 X98.626 Y178.158 E.01346
G1 X99.159 Y177.618 E.02376
G1 X99.793 Y177.25 E.023
G1 X100.652 Y177.022 E.02786
G1 X131.097 Y177.022 E.95457
G1 X131.752 Y176.948 E.02066
G1 X132.228 Y176.781 E.01583
G1 X132.656 Y176.513 E.01583
G1 X133.013 Y176.156 E.01583
G1 X133.281 Y175.728 E.01583
G1 X133.448 Y175.252 E.01583
G1 X133.522 Y174.597 E.02066
G1 X133.522 Y77.903 E3.03176
G1 X133.448 Y77.248 E.02066
G1 X133.281 Y76.772 E.01583
G1 X133.013 Y76.344 E.01583
G1 X132.656 Y75.987 E.01583
G1 X132.228 Y75.719 E.01583
G1 X131.752 Y75.552 E.01583
G1 X131.097 Y75.478 E.02066
G1 X100.652 Y75.478 E.95457
G1 X99.794 Y75.25 E.02785
G1 X99.287 Y74.979 E.01801
G1 X98.63 Y74.346 E.02862
G1 X98.38 Y73.991 E.01361
G1 X98.022 Y72.853 E.03741
G1 X98.022 Y52.718 E.63132
G1 X98.084 Y52.27 E.01419
G1 X98.386 Y51.54 E.02477
M204 S1000
G1 X98.727 Y51.68 F10800
M204 S800
G1 F1200
G1 X99.273 Y51.017 E.02691
G1 X99.906 Y50.611 E.02358
G1 X100.678 Y50.399 E.0251
G1 X133.899 Y50.399 E1.04162
G1 X133.899 Y10.222 E1.25973
G1 X134.028 Y9.61 E.0196
G1 X134.366 Y8.957 E.02307
G1 X134.868 Y8.436 E.02268
G1 X135.406 Y8.111 E.0197
G1 X136.178 Y7.899 E.02512
G1 X149.325 Y7.903 E.4122
G1 X149.849 Y8.014 E.01681
G1 X150.377 Y8.254 E.01817
G1 X150.984 Y8.775 E.0251
G1 X151.389 Y9.406 E.02351
G1 X151.601 Y10.178 E.0251
G1 X151.601 Y199.768 E5.94447
G1 X151.546 Y200.154 E.01222
M73 Q2 S139
G1 X151.26 Y200.851 E.02362
G1 X150.727 Y201.483 E.02592
G1 X150.094 Y201.889 E.02358
G1 X149.322 Y202.101 E.0251
G1 X100.732 Y202.101 E1.52351
G1 X100.346 Y202.046 E.01222
G1 X99.649 Y201.76 E.02362
G1 X99.017 Y201.227 E.02592
G1 X98.611 Y200.594 E.02358
G1 X98.399 Y199.822 E.0251
G1 X98.399 Y179.676 E.63168
G1 X98.706 Y178.7 E.03208
G1 X98.906 Y178.411 E.01103
G1 X99.409 Y177.901 E.02244
G1 X99.917 Y177.607 E.01839
G1 X100.678 Y177.399 E.02475
G1 X131.118 Y177.399 E.95443
G1 X131.836 Y177.318 E.02266
G1 X132.393 Y177.123 E.01849
G1 X132.892 Y176.809 E.01849
G1 X133.309 Y176.392 E.0185
G1 X133.623 Y175.893 E.01849
G1 X133.818 Y175.336 E.01849
G1 X133.899 Y174.618 E.02266
G1 X133.899 Y77.882 E3.03309
G1 X133.818 Y77.164 E.02266
G1 X133.623 Y76.607 E.01849
G1 X133.309 Y76.108 E.01849
G1 X132.892 Y75.691 E.01849
G1 X132.393 Y75.377 E.01849
G1 X131.836 Y75.182 E.01849
G1 X131.118 Y75.101 E.02266
G1 X100.678 Y75.101 E.95443
G1 X99.916 Y74.892 E.02478
G1 X99.491 Y74.662 E.01515
G1 X98.907 Y74.09 E.02562
G1 X98.706 Y73.8 E.01106
G1 X98.399 Y72.824 E.03207
G1 X98.399 Y52.732 E.62999
G1 X98.454 Y52.346 E.01222
G1 X98.704 Y51.735 E.0207
M204 S1000
G1 X99.051 Y51.88 F10800
M204 S800
G1 F1200
G1 X99.075 Y51.823 E.00194
G1 X99.54 Y51.285 E.02231
G1 X100.036 Y50.965 E.0185
G1 X100.705 Y50.776 E.02179
G1 X134.276 Y50.776 E1.0526
G1 X134.276 Y10.241 E1.27096
G1 X134.376 Y9.757 E.0155
M73 P2 R136
G1 X134.66 Y9.195 E.01973
G1 X135.089 Y8.743 E.01954
G1 X135.535 Y8.466 E.01648
G1 X136.205 Y8.276 E.02182
G1 X149.303 Y8.28 E.41069
G1 X149.747 Y8.377 E.01423
G1 X150.193 Y8.584 E.01541
G1 X150.716 Y9.041 E.02178
G1 X151.035 Y9.536 E.01847
G1 X151.224 Y10.205 E.02179
G1 X151.224 Y199.754 E5.94318
G1 X151.177 Y200.075 E.01017
G1 X150.925 Y200.677 E.02046
G1 X150.46 Y201.215 E.02231
G1 X149.964 Y201.535 E.0185
G1 X149.295 Y201.724 E.02179
G1 X100.746 Y201.724 E1.52223
G1 X100.425 Y201.677 E.01017
G1 X99.823 Y201.425 E.02046
G1 X99.285 Y200.96 E.02231
G1 X98.965 Y200.464 E.0185
G1 X98.776 Y199.795 E.02179
G1 X98.776 Y179.705 E.62993
G1 X99.033 Y178.889 E.02682
G1 X99.187 Y178.663 E.00857
G1 X99.66 Y178.184 E.02108
G1 X100.042 Y177.963 E.01386
G1 X100.705 Y177.776 E.02158
G1 X131.139 Y177.776 E.95425
G1 X131.921 Y177.688 E.02466
G1 X132.558 Y177.465 E.02116
G1 X133.129 Y177.106 E.02116
G1 X133.606 Y176.629 E.02116
G1 X133.965 Y176.058 E.02116
G1 X134.188 Y175.421 E.02116
G1 X134.276 Y174.639 E.02466
G1 X134.276 Y77.861 E3.03442
G1 X134.188 Y77.079 E.02466
M73 P3 R136
G1 X133.965 Y76.442 E.02116
G1 X133.606 Y75.871 E.02116
G1 X133.129 Y75.394 E.02116
G1 X132.558 Y75.035 E.02116
G1 X131.921 Y74.812 E.02116
G1 X131.139 Y74.724 E.02466
G1 X100.705 Y74.724 E.95425
G1 X100.041 Y74.536 E.02163
G1 X99.699 Y74.346 E.01229
G1 X99.187 Y73.836 E.02264
G1 X99.033 Y73.611 E.00855
G1 X98.776 Y72.795 E.02682
G1 X98.776 Y52.746 E.62864
G1 X98.823 Y52.425 E.01016
G1 X99.028 Y51.936 E.01664
M204 S1000
G1 X99.374 Y52.084 F10800
M204 S800
G1 F1200
G1 X99.409 Y52.001 E.00281
G1 X99.804 Y51.555 E.01871
